/* XPM */
static char *_08109be63b74ab39d34d8db8c5e6eeaCnL6qgassHVK8h1h[] = {
/* columns rows colors chars-per-pixel */
"128 128 256 2 ",
"   c black",
".  c blue",
"X  c green",
"o  c red",
"O  c cyan",
"+  c yellow",
"@  c magenta",
"#  c white",
"$  c #7B7B7B",
"%  c #7B7B7B",
"&  c #7B7B7B",
"*  c #7B7B7B",
"=  c #7B7B7B",
"-  c #7B7B7B",
";  c #7B7B7B",
":  c #7B7B7B",
">  c #7B7B7B",
",  c #7B7B7B",
"<  c #7B7B7B",
"1  c #7B7B7B",
"2  c #7B7B7B",
"3  c #7B7B7B",
"4  c #7B7B7B",
"5  c #7B7B7B",
"6  c #7B7B7B",
"7  c #7B7B7B",
"8  c #7B7B7B",
"9  c #7B7B7B",
"0  c #7B7B7B",
"q  c #7B7B7B",
"w  c #7B7B7B",
"e  c #7B7B7B",
"r  c #7B7B7B",
"t  c #7B7B7B",
"y  c #7B7B7B",
"u  c #7B7B7B",
"i  c #7B7B7B",
"p  c #7B7B7B",
"a  c #7B7B7B",
"s  c #7B7B7B",
"d  c #7B7B7B",
"f  c #7B7B7B",
"g  c #7B7B7B",
"h  c #7B7B7B",
"j  c #7B7B7B",
"k  c #7B7B7B",
"l  c #7B7B7B",
"z  c #7B7B7B",
"x  c #7B7B7B",
"c  c #7B7B7B",
"v  c #7B7B7B",
"b  c #7B7B7B",
"n  c #7B7B7B",
"m  c #7B7B7B",
"M  c #7B7B7B",
"N  c #7B7B7B",
"B  c #7B7B7B",
"V  c #7B7B7B",
"C  c #7B7B7B",
"Z  c #7B7B7B",
"A  c #7B7B7B",
"S  c #7B7B7B",
"D  c #7B7B7B",
"F  c #7B7B7B",
"G  c #7B7B7B",
"H  c #7B7B7B",
"J  c #7B7B7B",
"K  c #7B7B7B",
"L  c #7B7B7B",
"P  c #7B7B7B",
"I  c #7B7B7B",
"U  c #7B7B7B",
"Y  c #7B7B7B",
"T  c #7B7B7B",
"R  c #7B7B7B",
"E  c #7B7B7B",
"W  c #7B7B7B",
"Q  c #7B7B7B",
"!  c #7B7B7B",
"~  c #7B7B7B",
"^  c #7B7B7B",
"/  c #7B7B7B",
"(  c #7B7B7B",
")  c #7B7B7B",
"_  c #7B7B7B",
"`  c #7B7B7B",
"'  c #7B7B7B",
"]  c #7B7B7B",
"[  c #7B7B7B",
"{  c #7B7B7B",
"}  c #7B7B7B",
"|  c #7B7B7B",
" . c #7B7B7B",
".. c #7B7B7B",
"X. c #7B7B7B",
"o. c #7B7B7B",
"O. c #7B7B7B",
"+. c #7B7B7B",
"@. c #7B7B7B",
"#. c #7B7B7B",
"$. c #7B7B7B",
"%. c #7B7B7B",
"&. c #7B7B7B",
"*. c #7B7B7B",
"=. c #7B7B7B",
"-. c #7B7B7B",
";. c #7B7B7B",
":. c #7B7B7B",
">. c #7B7B7B",
",. c #7B7B7B",
"<. c #7B7B7B",
"1. c #7B7B7B",
"2. c #7B7B7B",
"3. c #7B7B7B",
"4. c #7B7B7B",
"5. c #7B7B7B",
"6. c #7B7B7B",
"7. c #7B7B7B",
"8. c #7B7B7B",
"9. c #7B7B7B",
"0. c #7B7B7B",
"q. c #7B7B7B",
"w. c #7B7B7B",
"e. c #7B7B7B",
"r. c #7B7B7B",
"t. c #7B7B7B",
"y. c #7B7B7B",
"u. c #7B7B7B",
"i. c #7B7B7B",
"p. c #7B7B7B",
"a. c #7B7B7B",
"s. c #7B7B7B",
"d. c #7B7B7B",
"f. c #7B7B7B",
"g. c #7B7B7B",
"h. c #7B7B7B",
"j. c #7B7B7B",
"k. c #7B7B7B",
"l. c #7B7B7B",
"z. c #7B7B7B",
"x. c #7B7B7B",
"c. c #7B7B7B",
"v. c #7B7B7B",
"b. c #7B7B7B",
"n. c #7B7B7B",
"m. c #7B7B7B",
"M. c #7B7B7B",
"N. c #7B7B7B",
"B. c #7B7B7B",
"V. c #7B7B7B",
"C. c #7B7B7B",
"Z. c #7B7B7B",
"A. c #7B7B7B",
"S. c #7B7B7B",
"D. c #7B7B7B",
"F. c #7B7B7B",
"G. c #7B7B7B",
"H. c #7B7B7B",
"J. c #7B7B7B",
"K. c #7B7B7B",
"L. c #7B7B7B",
"P. c #7B7B7B",
"I. c #7B7B7B",
"U. c #7B7B7B",
"Y. c #7B7B7B",
"T. c #7B7B7B",
"R. c #7B7B7B",
"E. c #7B7B7B",
"W. c #7B7B7B",
"Q. c #7B7B7B",
"!. c #7B7B7B",
"~. c #7B7B7B",
"^. c #7B7B7B",
"/. c #7B7B7B",
"(. c #7B7B7B",
"). c #7B7B7B",
"_. c #7B7B7B",
"`. c #7B7B7B",
"'. c #7B7B7B",
"]. c #7B7B7B",
"[. c #7B7B7B",
"{. c #7B7B7B",
"}. c #7B7B7B",
"|. c #7B7B7B",
" X c #7B7B7B",
".X c #7B7B7B",
"XX c #7B7B7B",
"oX c #7B7B7B",
"OX c #7B7B7B",
"+X c #7B7B7B",
"@X c #7B7B7B",
"#X c #7B7B7B",
"$X c #7B7B7B",
"%X c #7B7B7B",
"&X c #7B7B7B",
"*X c #7B7B7B",
"=X c #7B7B7B",
"-X c #7B7B7B",
";X c #7B7B7B",
":X c #7B7B7B",
">X c #7B7B7B",
",X c #7B7B7B",
"<X c #7B7B7B",
"1X c #7B7B7B",
"2X c #7B7B7B",
"3X c #7B7B7B",
"4X c #7B7B7B",
"5X c #7B7B7B",
"6X c #7B7B7B",
"7X c #7B7B7B",
"8X c #7B7B7B",
"9X c #7B7B7B",
"0X c #7B7B7B",
"qX c #7B7B7B",
"wX c #7B7B7B",
"eX c #7B7B7B",
"rX c #7B7B7B",
"tX c #7B7B7B",
"yX c #7B7B7B",
"uX c #7B7B7B",
"iX c #291808",
"pX c #6A6A6A",
"aX c #181008",
"sX c #292008",
"dX c #100800",
"fX c #5A4120",
"gX c #5A0000",
"hX c #AC7B18",
"jX c #202020",
"kX c #834100",
"lX c #620000",
"zX c #C59C29",
"xX c #410000",
"cX c #414141",
"vX c #413118",
"bX c #730000",
"nX c #9C5A10",
"mX c gray16",
"MX c #7B7B7B",
"NX c #4A3118",
"BX c #4A0000",
"VX c gray32",
"CX c #D5BD41",
"ZX c #393939",
"AX c #101010",
"SX c gray29",
"DX c #EEDE52",
"FX c #5A5A5A",
"GX c #4A3920",
"HX c #313131",
"JX c #312010",
"KX c #732900",
"LX c #9C0000",
"PX c #7B0000",
"IX c #FFFF73",
"UX c #FFFF41",
/* pixels */
"HXHXHXHXHXHXHXHXHXHXHXHXHXHXHXHXHXHXHXHXHXHXHXHXHXHXHXHXHXHXHXHXHXHXHXHXHXHXHXHXHXHXHXHXHXHXHXHXHXHXHXHXHXHXHXHXHXHXHXHXHXHXHXHXHXHXHXHXHXHXHXHXHXHXHXHXHXHXHXHXHXHXHXHXHXHXHXHXHXHXHXHXHXHXHXHXHXHXHXHXHXHXHXHXHXHXHXHXHXHXHXHXHXHXHXHXHXHXHXHXHXHXHXHXHXHXHXZX",
"ZXZXZXZXZXZXZXZXZXZXZXZXZXZXZXZXZXZXZXZXZXZXZXZXZXZXZXZXZXZXZXZXZXZXZXZXZXZXZXZXZXZXZXZXZXZXZXZXZXZXZXZXZXZXZXZXZXZXZXZXZXZXZXZXZXZXZXZXZXZXZXZXZXZXZXZXZXZXZXZXZXZXZXZXZXZXZXZXZXZXZXZXZXZXZXZXZXZXZXZXZXZXHXHXHXHXHXHXZXZXZXZXZXZXZXZXZXZXZXZXZXZXZXZXZXZXZXZX",
"FXFXZXZXFXFXSXSXSXSXSXSXSXSXSXSXFXFXSXSXSXSXSXSXSXSXSXSXSXSXFXFXSXSXZXZXSXSXSXSXSXSXSXSXSXSXSXSXSXSXFXFXFXFXFXFXFXFXFXFXFXFXSXSXSXSXSXSXSXSXSXSXSXSXSXSXcXcXcXSXSXSXSXSXSXSXSXSXSXSXSXSXSXSXSXSXSXcXcXcXcXZXZXZXZXZXZXZXZXSXSXSXFXFXFXFXSXSXSXSXSXSXSXSXSXSXZXZX",
"FXFXZXZXFXFXSXSXSXSXSXSXSXSXSXSXFXFXSXSXSXSXSXSXSXSXSXSXSXSXFXFXSXSXZXZXSXSXSXSXSXSXSXSXSXSXSXSXSXSXFXFXFXFXFXFXFXFXFXFXFXFXSXSXSXSXSXSXSXSXSXSXSXSXSXSXSXSXSXSXFXFXFXFXFXFXFXFXFXFXFXFXFXFXFXFXSXSXSXSXSXSXZXZXHXHXZXZXSXSXFXFXFXFXFXFXFXSXSXSXSXSXSXSXSXSXZXZX",
"lXBXgXxXlXxXlXlXBXlXBXlXBXBXlXBXgXlXxXlXxXlXxXgXlXSXSXSXSXSXFXFXSXPXlXBXgXlXBXlXBXlXBXlXBXBXlXBXgXxXlXxXlXlXgXBXlXBXBXlXxXgXgXlXgXgXBXlXBXgXgXgXgXZXSXSXSXSXSXFXSXPXlXBXgXlXBXlXxXxXxXxXxXxXxXxXxXxXBXxXBXxXBXxXBXxXxXxXxXxXBXxXxXBXxXBXBXBXgXxXlXBXlXBXgXxXlXxX",
"bXlXPXlXlXPXlXlXPXlXPXPXlXlXbXlXPXlXlXPXlXbXlXPXlXBXjXSXSXSXFXpXLXLXPXbXbXPXlXPXPXlXPXPXlXlXbXlXPXlXlXPXlXlXPXlXPXbXlXlXlXlXlXPXgXPXlXPXlXPXlXlXxXxXZXZXSXSXFXSXLXLXPXbXbXPXlXPXPXlXPXPXlXlXbXlXPXlXlXPXlXlXPXlXPXbXbXlXPXlXlXlXlXlXlXPXPXlXPXlXbXlXbXlXPXlXlXPX",
"lXxXlXxXlXBXlXlXlXgXlXlXgXxXlXxXlXlXxXlXBXxXgXgXxXxXjXHXSXSXFXpXLXlXlXgXgXlXxXlXlXgXlXlXgXxXlXxXlXxXlXBXlXlXlXlXlXgXxXlXgXgXgXlXxXlXxXlXlXgXBXlXxXxXHXZXSXFXFXZXLXlXlXgXgXlXxXlXlXgXlXlXgXxXlXxXlXxXlXBXlXlXlXlXlXgXlXxXgXgXxXlXgXgXgXlXlXxXlXxXlXxXlXxXlXxXlXBX",
"gXxXgXxXgXxXlXgXgXlXgXlXxXxXgXxXgXlXgXlXxXlXxXlXxXxXjXHXSXSXFXpXLXPXlXxXlXgXxXlXgXlXgXlXxXxXgXxXgXxXgXxXlXgXlXgXlXxXxXlXxXBXlXgXxXlXgXlXgXlXBXlXxXxXHXZXSXSXFXZXLXPXlXxXlXgXxXlXgXlXgXlXxXxXgXxXgXxXgXxXlXgXlXgXlXxXgXxXlXgXxXlXxXBXlXgXgXxXgXxXgXxXgXxXgXxXgXxX",
"xXgXlXgXxXlXgXgXxXlXxXlXgXxXxXgXlXgXxXlXxXxXgXBXxXxXjXHXSXSXFXpXPXPXgXxXlXxXgXBXxXlXxXlXgXxXxXgXlXgXxXlXgXgXlXxXlXgXlXgXgXxXgXlXxXlXxXgXxXgXgXBXxXxXHXZXSXSXFXSXPXPXgXxXlXxXgXBXxXlXxXlXgXxXxXgXlXgXxXlXgXgXlXxXlXgXgXxXlXxXlXgXgXxXgXlXxXgXBXgXxXgXxXgXlXxXxXlX",
"gXxXlXxXlXBXlXlXgXgXlXlXgXlXgXxXlXlXgXgXxXgXxXlXxXxXjXHXSXFXpXpXPXPXlXgXlXgXxXlXgXgXlXlXgXlXgXxXlXxXlXBXlXlXgXlXlXgXxXlXxXBXlXxXlXlXgXlXlXlXBXgXxXxXHXZXSXFXFXSXPXPXlXgXlXgXxXlXgXgXlXlXgXlXgXxXlXxXlXBXlXlXgXlXlXgXlXxXgXgXxXlXxXBXlXxXlXxXBXxXgXxXgXxXBXxXxXBX",
"lXxXgXxXlXxXlXlXxXlXxXlXxXxXlXxXgXlXxXlXxXlXxXgXxXxXjXHXSXFXpXpXPXlXlXxXgXlXxXlXxXlXxXlXxXxXlXxXgXxXlXxXlXlXgXxXlXxXxXlXxXBXgXlXgXgXxXlXxXgXBXlXxXxXHXZXSXFXFXSXPXlXlXxXgXlXxXlXxXlXxXlXxXxXlXxXgXxXlXxXlXlXgXxXlXxXlXxXlXxXxXlXxXBXgXlXxXxXgXgXlXxXlXxXgXxXBXxX",
"gXxXlXxXgXlXgXgXlXgXlXlXgXxXgXxXlXgXxXlXxXgXxXlXxXxXjXHXSXFXpXpXPXlXlXgXgXlXxXlXlXgXlXlXgXxXgXxXlXxXgXlXgXgXlXgXlXgXxXBXgXxXxXlXxXlXBXlXgXlXBXlXxXxXHXZXSXFXFXSXPXlXlXgXgXlXxXlXlXgXlXlXgXxXgXxXlXxXgXlXgXgXlXgXlXgXgXxXlXgXxXBXgXxXxXlXlXxXxXgXgXxXgXxXBXxXgXlX",
"xXlXxXgXxXlXxXgXlXgXlXlXgXlXxXlXxXxXlXxXgXxXgXxXxXxXjXHXSXFXpXpXPXlXlXgXgXlXxXlXlXgXlXlXgXlXxXlXxXgXxXlXxXgXlXgXlXxXxXgXxXBXlXgXxXlXgXlXgXlXBXlXxXxXHXZXSXFXFXSXPXlXlXgXgXlXxXlXlXgXlXlXgXlXxXlXxXgXxXlXxXgXlXgXlXxXgXxXlXgXxXgXxXBXlXgXlXlXxXgXBXgXxXBXgXxXxXlX",
"xXgXxXlXxXgXlXlXgXlXgXlXxXgXxXgXxXBXgXxXgXBXgXxXxXxXjXHXSXFXpXpXPXlXlXxXlXgXxXlXgXlXgXlXxXgXxXgXxXlXxXgXlXlXgXxXlXgXlXBXgXxXgXlXxXlXxXgXxXgXgXBXxXxXHXZXSXFXpXSXPXlXlXxXlXgXxXlXgXlXgXlXxXgXxXgXxXlXxXgXlXlXgXxXlXgXgXxXlXxXlXBXgXxXgXlXgXgXxXgXBXgXxXgXgXxXxXgX",
"gXlXxXlXgXgXxXgXxXlXxXlXgXgXgXlXxXxXgXlXxXlXxXgXxXxXjXHXcXSXFXpXPXlXgXxXlXxXgXBXxXlXxXlXgXgXgXlXxXlXgXgXxXgXgXlXlXgXxXgXxXBXlXxXlXlXgXlXlXlXBXgXxXxXHXZXSXFXpXSXPXlXgXxXlXxXgXBXxXlXxXlXgXgXgXlXxXlXgXgXxXgXgXlXlXgXlXxXgXgXxXgXxXBXlXxXxXlXxXlXBXlXxXBXgXxXxXgX",
"xXgXlXxXlXxXgXxXgXgXlXlXgXlXxXgXlXxXlXxXgXlXgXBXxXxXjXHXcXSXFXpXPXPXlXgXlXgXxXlXgXgXlXlXgXlXxXgXlXkXkXkXkXnXnXnXnXnXnXnXnXnXhXhXhXhXhXhXhXhXhXhXnXnXnXZXSXFXpXSXPXPXlXgXlXgXxXlXgXgXlXlXgXlXxXgXlXxXlXxXgXxXlXxXlXxXlXxXlXxXxXlXxXBXgXlXlXgXxXlXBXlXgXlXgXxXxXgX",
"BXlXxXxXlXxXgXgXxXlXxXlXxXlXBXlXxXxXgXlXgXgXxXBXxXxXjXHXcXcXFXpXPXPXlXxXgXlXxXlXxXlXxXlXxXlXBXkXkXnXhXhXhXhXhXhXhXhXhXhXnXhXzXzXzXCXCXCXCXCXCXCXCXCXCXkXkXFXpXSXPXPXlXxXgXlXxXlXxXlXxXlXxXlXBXlXxXxXlXxXgXgXlXgXlXgXgXBXlXgXxXBXgXxXxXlXxXlXxXlXBXlXxXBXgXxXxXgX",
"gXlXlXxXgXgXxXxXgXlXgXlXgXgXgXlXlXxXxXBXxXBXaXxXxXxXjXHXZXcXFXpXPXPXlXxXlXxXgXBXgXlXgXlXnXhXhXhXnXkXnXzXCXCXCXCXCXzXhXnXhXCXIXIXIXIXIXIXIXIXIXIXIXDXzXnXhXhXhXnXPXPXlXxXlXxXgXBXgXlXgXlXgXgXgXlXlXxXgXgXxXxXlXlXBXBXlXlXBXxXlXlXgXxXlXlXgXlXxXlXBXlXxXxXgXxXxXgX",
"xXxXxXxXxXxXxXxXxXxXxXxXxXxXxXxXBXaXxXaXxXaXxXaXaXxXjXHXZXcXSXSXlXBXxXxXxXxXxXxXxXxXxXnXhXhXzXzXhXkXkXnXhXDXDXDXCXhXnXnXzXIXIXIXIXIXIXIXIXIXIXIXDXzXnXhXzXzXhXhXnXBXxXxXxXxXxXxXxXxXxXxXxXxXxXxXxXxXxXxXxXxXxXxXxXxXxXxXxXxXxXxXxXxXxXxXxXBXaXxXxXxXxXaXaXxXxXxX",
"xXxXxXxXxXxXxXxXxXxXxXxXxXxXxXxXxXaXxXxXxXxXxXxXaXjXjXHXZXcXSXSXZXxXxXxXxXxXxXxXkXnXnXnXzXhXzXzXnXfXfXkXnXhXCXCXhXnXkXzXDXDXDXDXDXDXDXDXDXDXDXCXzXfXfXnXzXzXhXzXnXnXnXkXxXxXxXxXxXxXxXxXxXxXxXxXxXxXxXxXxXxXxXxXxXxXxXxXxXxXxXxXxXxXxXxXxXxXxXxXxXxXxXxXxXxXxXxX",
"jXjXjXjXjXjXjXjXjXjXjXjXjXjXjXjXjXjXjXjXjXjXjXjXjXjXHXHXZXcXSXFXSXSXSXZXZXHXHXkXhXhXnXnXnXhXhXnXkXkXfXkXkXnXhXhXhXkXnXCXCXCXCXCXCXCXCXCXCXCXCXzXkXfXkXkXnXhXhXnXnXnXhXhXkXjXjXjXjXjXjXjXjXjXjXjXjXjXjXjXjXjXjXjXjXjXjXjXjXjXjXjXjXjXjXjXjXjXjXjXjXjXjXjXjXjXjXHX",
"ZXZXZXZXZXZXZXZXZXZXZXZXZXZXZXZXZXZXZXZXHXHXHXHXHXHXZXZXZXcXSXFXpX$ $ $ kXkXnXhXzXzXhXnXnXnXnXkXhXhXzXnXkXkXnXhXnXkXhXzXzXzXzXzXzXzXzXzXzXzXzXhXnXzXhXhXkXnXnXnXnXhXzXzXhXnXkXkXZXZXZXZXZXZXZXZXZXZXZXZXZXZXZXZXZXZXZXZXHXHXHXHXHXHXHXZXZXZXZXZXZXZXZXZXZXHXHXHX",
"FXSXcXZXZXZXZXZXZXZXcXcXcXcXcXcXcXcXZXZXZXZXZXZXZXZXZXZXcXcXcXcXFXpX$ kXhXhXhXzXzXnXnXnXnXkXkXhXCXCXDXDXCXkXkXhXnXnXzXzXzXzXzXzXzXzXzXzXzXzXzXCXDXDXCXCXhXkXkXnXnXnXnXzXzXhXhXhXkXcXSXFXFXFXpXFXFXFXSXSXSXSXSXSXSXSXcXcXZXHXHXHXHXZXZXZXSXFXFXSXSXSXSXSXFXFXFXFX",
"FXFXZXZXZXZXZXZXZXZXSXSXSXSXSXSXSXSXZXZXZXZXZXZXZXZXZXZXcXSXZXZXSXSXkXnXzXzXzXhXnXzX+ + + zXhXhXCX+ DXDXCXkXkXnXkXhXhXhXhXhXhXhXhXhXhXhXhXhXhXCXDXDX+ CXhXhXzX+ + + zXnXhXzXzXzXnXkXFXpX$ $ $ $ pXFXFXFXFXFXSXSXSXSXcXcXZXHXHXHXZXSXZXSXFXpXpXFXSXSXSXSXFXFXFXFX",
"lXxXlXxXlXxXgXgXxXgXlXlXBXgXxXlXBXlXBXgXxXlXxXlXxXlXxXlXxXgXlXZXSXSXfXnXzXCXzXnXzX+ DXDXCX+ zXDX+ DXCXzXhXkXkXkXnXhXhXhXhXhXhXhXhXhXhXhXhXhXnXhXzXCXDX+ DXzX+ CXDXDX+ zXnXzXCXzXnXfXBXlXBXgXxXlXxXlXxXlXxXlXxXgXlXZXSXSXcXZXHXHXSXPXlXBXgXlXBXlXBXlXBXlXBXBXlXBX",
"lXlXPXlXbXlXPXlXlXPXbXbXlXPXlXbXlXbXlXPXlXlXPXlXlXPXlXbXlXPXlXBXSXkXkXnXCXCXhXnXzXCXCXCXCXCX+ + CXnXnXnXkXkXhXkXnXnXnXnXnXnXnXnXnXnXnXnXnXnXkXkXnXnXnXCX+ + CXCXCXCXCXzXnXhXCXCXnXkXkXbXlXPXlXlXPXlXlXPXlXbXlXPXlXBXSXSXcXcXZXHXLXLXPXbXbXPXlXPXPXlXPXPXlXlXbXlX",
"lXxXlXBXxXxXgXBXgXgXBXlXxXlXxXlXxXlXxXlXxXlXBXlXxXlXBXxXgXgXxXkXfXhXhXkXnXnXnXnXzXCXzXhX+ + DXzXnXnXkXkXhXkXhXkXnXnXnXnXnXnXnXnXnXnXnXnXnXkXkXhXkXkXnXnXzXDX+ + hXzXCXzXnXnXnXnXkXhXhXfXkXlXxXxXBXlXxXlXBXxXgXgXxXxXZXZXSXSXZXHXLXlXlXgXgXlXxXlXlXgXlXlXgXxXlXxX",
"lXgXlXxXlXxXlXBXxXlXxXlXxXgXxXgXxXgXxXgXxXgXxXlXgXlXxXlXxXlXkXhXnXzXzXCXhXzX+ DXDXzXzXCXDXhXnXnXnXkXnXzXCXkXfXkXkXkXkXkXkXkXkXkXkXkXkXkXkXfXkXCXzXnXkXnXnXnXhXDXCXzXzXDXDX+ zXhXCXzXzXnXhXkXxXgXxXlXgXlXxXgXxXlXxXxXZXZXSXSXZXHXLXPXlXxXlXgXxXlXgXlXgXlXxXxXgXxX",
"gXxXlXxXxXxXxXBXgXgXxXgXgXBXgXxXgXxXgXlXxXxXlXgXxXlXxXxXgXfXfXhXzXhXzXCXhXIXDXCXCXCXDXCXhXnXnXnXnXnXzXCXhXkXfXkXkXkXkXkXkXkXkXkXkXkXkXkXkXfXkXhXCXzXnXnXnXnXnXhXCXDXCXCXCXDXIXhXCXzXhXzXhXfXfXxXlXgXxXlXxXgXgXBXxXxXjXZXSXSXZXHXPXPXgXxXlXxXgXBXxXlXxXlXgXxXxXgX",
"lXgXgXxXgXxXlXgXxXlXxXgXxXBXxXgXxXgXxXBXxXxXBXlXgXgXxXgXfXnXzXzXzXhXCXCXhXDXDXIX+ DXCXhXnXnXnXnXnXhXhXkXkXfXfXfXfXfXfXfXfXfXfXfXfXfXfXfXfXfXfXkXkXhXhXnXnXnXnXnXhXCXDX+ IXDXDXhXCXCXhXzXzXzXnXfXxXlXgXgXxXgXxXlXxXxXjXZXSXSXZXZXPXPXlXgXlXgXxXlXgXgXlXlXgXlXgXxX",
"lXxXlXxXlXxXgXBXxXgXxXlXxXgXgXlXxXlXxXgXxXBXxXlXxXlXxXfXhXCXCXCXzXhXzXnXhXDXIX+ DXzXhXnXnXnXnXnXhXzXhXkXkXfXfXfXfXfXfXfXfXfXfXfXfXfXfXfXvXfXfXkXkXhXzXhXnXnXnXnXnXhXzXDX+ IXDXhXnXzXhXzXCXCXCXhXfXlXxXlXxXlXxXgXxXxXjXHXcXcXZXZXPXlXlXxXgXlXxXlXxXlXxXlXxXxXlXxX",
"gXxXgXxXgXxXlXBXxXlXxXgXxXxXgXgXxXgXxXBXxXgXlXgXxXlXxXnXzXCXzXzXhXhXhXnXzXDX+ DXzXhXnXnXnXnXhXhXzXCXhXfXfXnXnXfXfXfXfXfXfXfXfXfXfXfXfXGXvXnXnXfXfXhXCXzXhXhXnXnXnXnXhXzXDX+ DXzXnXhXhXhXzXzXCXzXnXgXxXgXxXlXxXlXxXxXjXHXcXFXSXZXPXlXlXgXgXlXxXlXlXgXlXlXgXxXgXxX",
"xXxXgXxXlXgXxXgXgXgXxXgXlXxXgXBXgXxXBXgXxXxXlXxXlXxXfXnXhXzXzXhXnXnXnXhXCX+ CXhXhXnXnXkXkXkXhXzXCXhXkXkXfXnXkXvXvXvXvXvXvXvXvXvXvXvXvXvXvXkXnXfXkXkXhXCXzXhXkXkXkXnXnXhXhXCX+ CXhXnXnXnXhXzXzXhXnXfXxXgXxXlXgXxXxXxXjXHXZXFXSXSXPXlXlXgXgXlXxXlXlXgXlXlXgXlXxXlX",
"lXgXgXxXBXgXxXlXgXgXxXgXgXxXgXBXgXxXgXgXxXxXgXBXgXxXkXnXnXnXnXnXnXCXDX+ CXCXhXhXnXnXnXkXhXkXkXkXkXkXkXfXfXkXKXvXvXvXvXvXvXvXvXvXvXvXvXvXvXKXkXfXfXkXkXkXkXkXkXhXkXnXnXnXhXhXCXCX+ DXCXnXnXnXnXnXnXkXxXgXxXBXgXgXxXxXjXHXZXFXSXSXPXlXlXxXlXgXxXlXgXlXgXlXxXgXxXgX",
"xXgXgXxXlXxXgXxXxXgXxXgXlXxXgXBXlXxXBXgXxXxXgXfXfXkXnXnXhXkXhXhXhXDXCXhXCXhXnXnXkXnXkXhXzXhXkXnXnXkXkXfXfXKXKXvXvXvXvXvXvXvXvXvXvXvXvXvXvXKXKXfXfXkXkXnXnXkXhXzXhXkXnXkXnXnXhXCXhXCXDXhXhXhXkXhXnXnXkXfXfXlXxXgXxXxXjXHXZXFXFXSXPXlXgXxXlXxXgXBXxXlXxXlXgXgXgXlX",
"gXlXgXgXlXxXlXlXgXlXxXgXgXxXgXBXlXgXlXgXxXxXkXhXkXfXnXhXnXhXCXDXCXzXhX+ CXnXnXnXhXhXzXCXCXhXfXnXnXkXvXfXvXvXvXjXjXjXjXjXjXjXjXjXHXHXHXvXvXvXvXvXfXvXkXnXnXfXhXCXCXzXhXhXnXnXnXCX+ hXzXCXDXCXhXnXhXnXfXkXhXkXxXBXxXxXjXHXZXFXFXSXPXPXlXgXlXgXxXlXgXgXlXlXgXlXxXgX",
"gXxXlXxXgXxXlXxXxXlXBXgXlXxXgXBXlXxXBXgXgXxXnXhXhXhXhXnXkXhXDXCXzXhX+ CXhXnXkXkXnXCXCXCXhXfXfXnXkXfXkXfXvXvXvXjXjXjXjXjXjXvXvXHXHXHXHXvXvXvXvXvXfXkXfXkXnXfXfXhXCXCXCXnXkXkXnXhXCX+ hXzXCXDXhXkXnXhXhXhXhXnXxXgXxXxXjXHXcXFXpXFXPXPXlXxXgXlXxXlXxXlXxXlXxXlXBXlX",
"xXxXlXxXlXxXlXgXBXlXBXgXlXxXgXBXlXxXxXgXgXnXhXCXzXhXkXCXIX+ CXzXhX+ CXhXhXkXhXhXkXkXfXfXkXvXkXfXfXfXfXvXvXjXjXjXjXjXjXjXvXvXvXfXHXHXHXHXHXHXvXvXvXfXfXfXfXkXvXkXfXfXkXkXhXhXkXhXhXCX+ hXzXCX+ IXCXkXhXzXCXhXnXgXxXxXjXHXcXFXpXFXPXPXlXxXlXxXgXBXgXlXgXlXgXgXBXlX",
"xXxXxXxXxXxXxXxXxXBXxXxXBXaXxXxXxXxXaXaXxXnXCXCXzXnXnXCXCXCXCXhX+ CXCX+ kXkXhXhXkXfXkXkXkXfXkXfXfXvXvXjXjXjXjXjXjXjXjXvXvXvXvXvXfXHXHXHXHXHXHXHXvXvXvXfXfXkXfXkXkXkXfXkXhXhXkXkX+ CXCX+ hXCXCXCXCXnXnXzXCXCXnXaXaXxXjXHXSXFXpXFXlXBXgXxXgXxXBXxXgXBXxXgXxXgXxXxX",
"xXxXxXxXxXxXxXxXxXxXxXxXxXxXxXxXxXxXxXvXkXkXzXzXzXhXnXCXzXzXhX+ CXCXCX+ nXkXkXkXnXnXkXkXvXvXvXvXHXjXjXjXjXjXjXjXjXjXvXvXvXvXvXvXvXfXHXHXHXHXHXHXHXHXHXHXvXvXvXvXkXkXnXnXkXkXkXnX+ CXCXCX+ hXzXzXCXnXhXzXzXzXkXkXvXjXjXHXSXFXpXFXZXlXxXxXxXxXxXxXxXxXxXxXxXxXxXxX",
"HXHXHXHXHXHXjXjXHXHXHXHXHXHXjXjXjXjXkXvXkXnXhXhXhXnXnXzXCXhXCXDXzXCX+ CXhXnXkXkXnXnXfXvXfXkXvXHXjXjXjXjXjXjXjXjXjXvXvXvXvXvXvXvXvXvXfXHXHXHXHXHXHXHXHXHXHXvXkXfXvXfXnXnXkXkXnXhXCX+ CXzXDXCXhXCXzXnXnXhXhXhXnXkXvXkXHXZXSXpXpXFXSXZXHXjXjXjXjXjXjXjXjXjXjXjXjXjX",
"HXZXZXZXZXZXHXHXZXZXZXZXZXZXHXHXHXHXkXnXnXnXhXCX+ DXCXzXzXCX+ zXzXzXhXnXnXhXnXkXnXkXvXfXfXHXHXjXjXjXjXjXjXjXjXjXvXvXvXvXvXvXvXvXvXvXvXvXHXHXHXHXHXHXHXHXHXHXHXfXfXvXkXnXkXnXhXnXnXhXzXzXzX+ CXzXzXCXDX+ CXhXnXnXnXkXZXSXFXpX$ pXSXSXZXZXZXHXHXZXHXZXZXZXZXSXZXHX",
"FXSXSXSXcXZXZXZXZXZXcXcXSXcXZXZXcXcXkXhXhXnXhX+ CXCXzXnXzX+ DXzXhXnXnXnXzXzXnXkXkXkXfXfXvXjXjXjXjXjXjXjXjXjXjXvXvXfXfXfXfXfXfXfXfXvXvXvXHXHXHXZXZXHXHXHXHXHXHXvXfXfXkXkXkXnXzXzXnXnXnXhXzXDX+ zXnXzXCXCX+ hXnXhXhXkXSXSXpX$ $ $ pXFXFXFXSXcXcXcXFXFXSXSXSXSXSXSX",
"FXFXFXFXSXSXZXZXZXZXSXSXFXFXZXZXFXkXhXCXzXhXkXCXCXhXhXnX+ + CXDXDXCXhXhXzXhXnXkXkXkXfXvXjXjXjXjXjXjXjXjXjXjXfXfXfXfXfXkXkXkXkXfXfXfXfXHXHXHXHXZXZXZXZXHXHXHXHXHXvXfXkXkXkXnXhXzXhXhXCXDXDXCX+ + nXhXhXCXCXkXhXzXCXhXkXpX$ $ $ $ $ pXFXFXFXSXcXcXFXFXSXSXSXSXSXSX",
"FXFXFXPXlXBXgXlXBXlXBXlXBXlXBXBXlXkXzXzXCXnXhXzXzXhXnXhX+ DXCXCXCX+ CXkXnXnXkXfXkXfXvXjXjXjXjXjXjXjXjXjXjXfXfXfXkXkXkXkXkXkXkXkXkXfXHXHXHXHXZXZXZXZXZXZXHXHXHXHXHXvXfXkXfXkXnXnXkXCX+ CXCXCXDX+ hXnXhXzXzXhXnXCXzXzXkXgXxXlXBXlXBXgXxXlXxXlXxXlXxXlXxXgXlXZXSXSX",
"FXFXLXLXPXbXbXPXlXPXPXlXPXPXlXlXbXlXzXCXCXhXkXnXhXhXnXCX+ CXzXzXzXDX+ kXnXkXkXfXfXvXjXjXjXjXjXjXjXjXjXjXkXfXkXkXkXkXkXkXkXkXkXkXfXHXHXHXHXZXZXSXSXSXSXZXZXHXHXHXHXHXvXfXfXkXkXnXkX+ DXzXzXzXCX+ CXnXhXhXnXkXhXCXCXzXlXPXlXbXlXbXlXPXlXlXPXlXlXPXlXbXlXPXlXBXZXSX",
"FXFXLXlXlXgXgXlXxXlXlXgXlXlXgXxXlXxXhXzXhXhXkXfXkXnXhX+ DXCXhXhXhXCXDXkXhXnXkXfXvXjXjXjXjXjXjXjXjXjXjXfXkXkXkXkXkXkXnXnXnXnXkXfXHXHXHXHXZXSXFXFXFXFXFXSXZXZXHXHXHXHXHXvXfXkXnXhXkXDXCXhXhXhXCXDX+ hXnXkXfXkXhXhXzXhXxXlXxXlXxXlXxXlXxXlXBXlXxXlXBXxXgXgXxXxXHXZX",
"FXFXLXPXlXxXlXgXxXlXgXlXgXlXxXxXkXhXnXhXkXCX+ DXCXhXCX+ CX+ + hXnXhXnXnXnXkXfXvXvXjXjXjXjXjXjXjXjXjXkXkXkXkXkXnXnXnXnXnXnXnXfXHXHXHXHXZXSXFXFXFXUXUXFXFXSXZXZXHXHXHXHXHXvXfXkXnXnXnXhXnXhX+ + CX+ CXhXCXDX+ CXkXhXnXhXkXxXgXxXgXxXgXxXgXxXlXgXlXxXlXxXlXxXxXHXHX",
"ZXZXPXPXgXxXlXxXgXBXxXlXxXlXgXxXkXkXkXkXkXIXCXzXzXhX+ + CXCX+ + nXkXhXhXnXkXGXjXjXjXjXjXjXjXjXjXjXkXkXkXkXnXnXhXhXhXhXhXhXfXHXHXHXHXHXZXFXFXFX+ hXhXUXFXFXSXZXHXHXHXHXHXvXGXkXnXhXhXkXnX+ + CXCX+ + hXzXzXCXIXkXkXkXkXkXgXxXgXxXgXlXxXxXlXgXxXlXxXxXgXBXxXxXjXHX",
"ZXZXPXPXlXgXlXgXxXlXgXgXlXlXgXkXnXhXhXnXkXCXzXhXhXCX+ DXzXCXCX+ CXkXhXhXnXfXvXjXjXjXjXjXjXjXjXjXkXkXkXnXnXhXhXhXhXhXhXhXfXHXHXHXHXHXZXSXFXFX+ hXkXkXhX+ FXFXSXZXHXHXHXHXHXvXfXnXhXhXkXCX+ CXCXzXDX+ CXhXhXzXCXkXnXhXhXnXkXgXxXgXxXBXxXxXBXlXgXgXxXgXxXlXxXxXjXHX",
"SXSXPXlXlXxXgXlXxXlXxXlXxXlXxXhXzXCXzXnXfXzXzXhXzXCX+ CXzXzXCXDXCXkXnXnXfXGXjXjXjXjXjXjXjXjXjXkXkXnXnXhXhXhXhXhXhXhXhXfXHXHXHXHXHXZXZXFXFX+ hXnXnXnXkXhX+ FXSXZXZXHXHXHXHXvXGXfXnXnXkXCXDXCXzXzXCX+ CXzXhXzXzXfXnXzXCXzXhXlXxXlXxXgXxXBXxXlXxXlXxXlXxXgXxXxXjXHX",
"SXSXPXlXlXgXgXlXxXlXlXgXlXlXgXhXCXzXhXkXkXhXzXhXzX+ + CXzXzXCXCXzXfXfXkXfXvXjXjXjXjXjXjXjXjXkXkXnXnXhXhXhXhXhXhXhXhXfXHXHXHXHXHXHXZXSXFX+ hXhXhXhXhXnXkXhXCXSXSXZXZXHXHXHXHXvXfXkXfXfXzXCXCXzXzXCX+ + zXhXzXhXkXkXhXzXCXhXgXxXgXxXBXxXgXlXgXxXlXxXgXxXlXxXxXjXHX",
"SXSXPXlXlXgXgXlXxXlXlXgXlXlXgXhXzXhXhXnXkXnXhXhXzXDXCXzXzXzXCXzXnXfXkXkXGXjXjXjXjXjXjXjXjXkXkXkXnXhXhXhXhXhXhXhXhX+ hXfXHXHXHXHXZXZXSX+ hXhXhXhXhXhXhXnXkXhXCXSXZXZXHXHXHXHXvXGXkXkXfXnXzXCXzXzXzXCXDXzXhXhXnXkXnXhXhXzXhXBXgXxXBXgXxXxXlXxXlXxXgXxXgXxXxXxXjXHX",
"SXSXPXlXlXxXlXgXxXlXgXlXgXlXxXkXhXzXhXnXkXkXfXhXzXCXzXhXzXzXzXhXnXkXkXkXvXjXjXjXjXjXjXjXjXfXkXkXhXhXhXhXhXhXhXhXhXhX+ hXfXHXHXHXZXFX+ hXhXhXhXhXhXhXhXhXnXkXhXCXZXZXZXHXHXHXHXvXkXkXkXnXhXzXzXzXhXzXCXzXhXfXkXkXnXhXzXhXkXBXgXxXgXgXxXxXgXBXgXxXgXBXgXxXxXxXjXHX",
"FXFXPXlXgXxXlXxXgXBXxXlXxXlXgXgXkXkXnXnXkXkXfXhXzXzXkXnXnXnXnXnXkXnXnXkXjXjXjXjXjXjXjXjXjXjXfXkXnXhXhXhXhXhXhXhXhXhXhX+ hXfXHXHXZXCXhXhXhXhXhXhXhXhXhXhXhXnXkXhXhXZXZXZXHXHXHXvXkXnXnXkXnXnXnXnXnXkXzXzXhXfXkXkXnXnXkXkXlXBXlXxXBXgXxXxXgXxXgXlXxXlXxXgXxXxXjXHX",
"FXFXPXPXlXgXlXgXxXlXgXgXlXlXgXkXnXzXzXnXkXfXvXhXhXhXkXkXnXhXnXhXkXnXhXfXjXjXjXjXjXjXjXHXHXjXjXfXkXnXhXhXhXhXhXhXhXhXhXhX+ hXfXfXCXhXhXhXhXhXhXhXhXhXhXhXhXhXnXkXhXkXZXZXHXHXHXvXfXhXnXkXhXnXhXnXkXkXhXhXhXvXfXkXnXzXzXnXkXBXlXgXlXgXxXxXgXxXlXxXgXlXgXBXxXxXjXHX",
"SXSXPXPXlXxXgXlXxXlXxXlXxXlXxXnXhXhXzXnXkXfXfXkXhXhXkXkXhXzXCXCXnXhXhXfXjXjXjXjXjXjXjXHXHXHXjXjXfXkXnXhXhXhXhXhXhXhXhXhXhX+ hXCXhXhXhXhXhXhXhXhXhXhXhXhXhXhXhXnXkXhXkXZXZXHXHXvXfXhXhXnXCXCXzXhXkXkXhXhXkXfXfXkXnXzXhXhXnXBXlXxXBXgXxXxXgXxXgXlXgXgXxXBXxXxXjXHX",
"SXSXPXPXlXxXlXxXgXBXgXlXgXlXgXnXhXnXnXkXkXfXkXCX+ + CXkXhXzXzXCXzXhXnXjXjXjXjXjXkXhXHXHXHXZXHXjXjXfXkXnXhXhXhXhXhXhXhXhXhXhXCXhXhXhXhXhXhXhXhXhXhXhXhXhXhXhXhXhXnXkXkXkXZXHXHXHXHXnXhXzXCXzXzXhXkXCX+ + CXkXfXkXkXnXnXhXnXBXlXxXxXgXxXxXgXxXxXBXxXBXaXxXxXxXjXHX",
"SXSXlXBXxXxXxXxXxXxXxXxXxXxXxXnXnXkXhXnXkXkXkX+ + + + hXnXhXzXzXhXhXnXjXjXjXjXkXhXCXhXHXHXZXZXHXjXjXfXkXnXhXhXhXhXhXhXhXhXhXhXhXhXhXhXhXhXhXhXfXfXhXhXhXhXhXhXhXnXkXkXkXfXHXHXHXHXnXhXhXzXzXhXnXhX+ + + + kXkXkXnXhXkXnXnXxXxXxXaXaXxXxXxXaXxXaXxXaXxXaXaXxXjXHX",
"SXSXZXxXxXxXxXxXxXxXxXxXxXxXxXkXkXnXhXnXkXhXkXCXCXCXCXkXnXnXhXhXzXnXfXjXjXjXkXhXhXhXCXCXZXZXZXZXHXjXjXfXkXnXhXhXhXhXhXhXhXhXhXhXhXhXhXhXhXhXfXjXjXfXhXhXhXhXhXhXhXnXkXkXkXfXHXHXHXfXnXzXhXhXnXnXkXCXCXCXCXkXhXkXnXhXnXkXkXxXxXxXxXxXxXxXxXaXxXxXxXxXxXxXaXjXjXHX",
"SXSXSXHXjXjXjXjXjXjXjXjXjXjXjXkXkXnXnXkXkXkXkXzXCXCXDXhXfXkXnXnXnXnXfXjXjXkXhXhXhXhXhXCXCXZXZXZXZXHXjXjXfXkXnXhXhXhXhXhXhXhXhXhXhXhXhXhXhXfXZXZXjXjXfXhXhXhXhXhXhXnXnXkXkXfXvXHXHXfXnXnXnXnXkXfXhXDXCXCXzXkXkXkXkXnXnXkXkXjXjXjXjXjXjXjXjXjXjXjXjXjXjXjXjXjXjXHX",
"SXSXSXSXZXHXHXHXHXHXHXHXHXHXHXHXkXnXkXzX+ + zXzXDXCXCXDX+ + zXkXnXkXkXvXkXhXhXhXhXhXhXhXCXCXZXZXZXZXHXjXjXfXkXnXhXhXhXhXhXhXhXhXhXhXhXhXfXHXHXHXZXjXjXfXhXhXhXhXhXnXnXkXkXkXfXvXvXkXkXnXkXzX+ + DXCXCXDXzXzX+ + zXkXnXkXHXHXHXHXHXHXjXjXHXHXHXHXHXHXHXHXHXHXHXHX",
"FXFXFXFXFXSXcXcXcXcXcXZXZXZXZXZXfXfXnX+ + DXhXhXDXCXzXhXhX+ CXkXkXkXkXfXkXhXhXhXhXhXhXhXhXCXCXZXZXZXZXHXjXjXfXkXnXhXhXhXhXhXhXhXhXhXhX+ fXHXHXHXHXZXjXjXfXhXhXhXhXhXnXkXkXkXfXvXfXkXkXkXkXCX+ hXhXzXCXDXhXhXDX+ + nXfXfXSXZXZXSXFXSXZXZXSXFXSXSXSXSXSXSXSXFXFXFX",
"FXFXFXFXFXFXFXFXFXFXSXSXSXSXZXkXkXkXnX+ CXhXhXhXDXCXCXhXhXzXhXfXkXkXkXHXjXfXhXhXhXhXhXhXhXhXCX+ ZXZXZXZXHXjXjXhXkXhXhXhXhXhXhXhXhXhXhXhX+ fXHXHXHXZXZXjXjXfXhXhXhXhXnXkXkXkXfXHXHXkXkXkXfXhXzXhXhXCXCXDXhXhXhXCX+ nXkXkXkXZXZXSXFXSXZXZXSXFXSXSXSXSXSXSXSXFXFXFX",
"lXlXBXgXxXlXBXlXBXgXxXlXxXlXxXkXnXkXnXhXzXhXnXnXDXDXzXzXzXhXkXkXnXnXkXHXHXjXfXhXhXhXhXhXhXhXhXCX+ ZXZXZXZXHXjXCXhXhXhXhXhXhXhXhXhXhXhXhXhX+ hXHXHXZXZXZXjXjXfXhXhXhXnXkXkXfXHXHXHXkXnXnXkXkXhXzXzXzXDXDXnXnXhXzXhXnXkXnXkXxXlXxXlXgXgXlXgXBXlXBXlXxXlXxXBXlXxXgX",
"bXbXlXPXlXbXlXbXlXPXlXlXPXlXlXfXnXhXkXnXhXhXhXnXCX+ zXzXkXfXfXhXhXnXnXHXHXHXjXfXhXhXhXhXhXhXhXhXCX+ ZXZXZXZX+ hXhXhXhXhXhXhXhXhXhXhXhXhXhXhX+ hXHXZXZXZXZXjXjXfXhXnXkXkXfXHXHXHXHXnXnXhXhXfXfXkXzXzX+ CXnXhXhXhXnXkXhXnXfXlXbXlXPXlXPXlXPXlXPXbXbXlXPXlXlXlXlXlX",
"BXlXxXlXxXlXxXlXxXlXxXlXBXlXxXfXhXzXnXkXnXnXhXnXCX+ CXhXkXkXkXhXzXhXnXHXHXHXHXjXfXhXhXhXhXhXhXhXhXCX+ ZXZX+ hXhXhXhXhXhXhXhXhXhXhXhXhXhXhXhXhX+ hXHXZXZXZXZXjXjXfXnXkXfXHXHXHXHXHXnXhXzXhXkXkXkXhXCX+ CXnXhXnXnXkXnXzXhXfXBXxXxXlXgXgXlXlXlXlXgXlXxXgXgXxXlXgXgX",
"xXlXxXgXxXgXxXgXxXgXxXgXxXlXgXkXzXzXhXkXkXkXnXnXzX+ CX+ + + hXkXhXhXnXkXHXHXHXHXjXfXhXhXhXhXhXhXhXhXCX+ + hXhXhXhXhXhXhXhXhXkXnXhXhXhXhXhXhXhXhX+ hXHXZXZXZXZXjXjXfXfXZXZXZXZXfXkXnXhXhXkXhX+ + + CX+ zXnXnXkXkXkXhXzXzXkXxXlXxXgXBXlXgXlXgXlXxXgXxXlXgXxXlXxXBX",
"xXgXgXBXgXxXgXxXgXlXxXxXlXgXxXlXnXhXhXnXnXkXkXkXzX+ + CXCX+ + kXnXnXkXkXfXHXHXHXHXjXfXhXhXhXhXhXhXhXhXCXhXhXhXhXhXhXhXhXhXfXfXkXnXhXhXhXhXhXhXhXhX+ hXHXZXZXZXZXjXHXZXZXZXSXSXfXkXkXnXnXkX+ + CXCX+ + zXkXkXkXnXnXhXhXnXlXxXxXxXlXBXlXgXlXxXlXgXgXxXlXxXlXgXgXxX",
"xXgXxXBXxXgXxXgXxXBXxXxXBXlXgXkXhXhXnXnXnXCX+ CXhX+ + zXzXzXCXkXnXhXhXnXkXZXHXHXHXHXjXfXhXhXhXhXhXhXhXhXhXhXhXhXhXhXhXhXfXjXjXfXkXnXhXhXhXhXhXhXhXhX+ hXHXZXZXZXZXZXZXSXSXSXFXkXnXhXhXnXkXCXzXzXzX+ + hXCX+ CXnXnXnXhXhXkXxXgXxXgXlXgXlXgXlXlXgXlXxXgXgXxXlXxXBX",
"xXlXxXgXgXlXxXlXxXgXxXBXxXlXxXkXhXzXzXnXhX+ DXhXnXzXDXzXzXzXzXkXzXDXCXhXkXSXZXHXHXHXHXjXfXhXhXhXhXhXhXhXhXhXhXhXhXhXhXfXjXjXjXjXfXkXnXhXhXhXhXhXhXhXhX+ hXHXZXZXZXZXSXSXSXSXFXkXhXCXDXzXkXzXzXzXzXDXzXnXhXDX+ hXnXzXzXhXkXxXlXxXlXBXgXlXgXxXlXxXlXxXlXxXxXlXxXBX",
"xXgXxXxXgXgXxXgXxXBXxXgXlXgXxXfXkXzXzXhXhX+ CXnXnXhXDXzXzXzXhXfXzXzXhXnXfXkXSXZXHXHXHXHXjXfXhXhXhXhXhXhXhXhXhXhXhXhXfXjXjXjXjXjXjXhXkXhXhXhXhXhXhXhXhXhX+ hXHXZXZXSXSXSXFXFXkXfXnXhXzXzXfXhXzXzXzXDXhXnXnXCX+ hXhXzXzXkXfXxXgXxXlXBXlXgXlXgXlXgXgXxXlXgXxXBXgXxX",
"xXgXlXxXgXBXgXxXBXgXxXxXlXxXlXvXkXnXhXhXkXCXzXnXnXhXDXCXzXhXhXnXkXnXhXnXkXSXSXSXZXHXHXHXHXjXfXhXhXhXhXhXhXhXhXhXhXfXjXjXjXHXHXjXjXCXkXhXhXhXhXhXhXhXhXhXhXkXHXZXZXSXSXSXFXFXFXkXnXhXnXkXnXhXhXzXCXDXhXnXnXzXCXkXhXhXnXkXvXxXlXgXBXlXBXgXlXgXlXxXgXxXlXgXxXgXxXBX",
"xXgXgXxXgXBXgXxXgXgXxXxXgXBXgXJXfXkXnXhXnXkXhXhXnXhXCX+ DXDXCXhXnXnXnXnXkXfXSXSXSXZXHXHXHXHXjXfXhXhXhXhXhXhXhXhXfXjXjXjXHXHXHXHXCXkXhXhXhXhXhXhXhXhXhXhXfXjXHXHXZXSXSXFXFXFXFXkXnXnXnXnXhXCXDXDX+ CXhXnXhXhXkXnXhXnXkXfXJXxXBXgXBXlXgXlXgXxXlXgXgXxXlXxXlXBXgXxX",
"xXgXlXxXgXBXlXxXBXgXxXxXgXxXgXJXfXhXnXkXkXkXkXhXhXhXzX+ DXCXzXhXnXhXhXhXnXkXkXSXSXSXZXHXHXHXHXjXfXhXhXhXhXhXhXfXjXjXjXHXHXHXHXCXhXhXhXhXhXhXhXhXhXhXhXfXjXjXHXZXZXSXSXFXFXkXkXnXhXhXhXnXhXzXCXDX+ zXhXhXhXkXkXkXkXnXhXfXJXxXlXxXgXgXBXgXgXlXlXgXlXxXgXgXxXgXxXBX",
"xXgXgXxXgXBXlXgXlXgXxXxXgXxXlXxXfXhXhXnXfXkXkXkXkXnXhX+ + hXhXzXCXDXzXhXnXnXnXkXSXSXSXZXHXHXHXHXjXfXhXhXhXhXfXjXjXjXHXHXHXHXCXhXhXhXhXhXhXhXhXhXhXhXfXjXjXHXHXZXSXSXSXFXkXnXnXnXhXzXDXCXzXhXhX+ + hXnXkXkXkXkXfXnXhXhXvXgXgXlXxXlXBXgXxXlXxXlXxXlXxXlXxXxXlXxXBX",
"BXgXlXxXgXBXlXxXBXgXgXxXgXxXgXlXvXhXzXhXnXkXkXhXCXzXnXCXDXhXhXhXzXCXDXfXnXhXhXkXSXSXSXSXZXHXHXHXHXjXfXhXhXfXjXjXjXHXHXHXHX+ hXhXhXhXhXhXhXhXhXhXhXfXjXjXHXHXZXZXSXSXFXFXkXhXhXnXfXDXCXzXhXhXhXDXCXnXzXCXhXkXkXnXhXzXhXvXlXxXgXxXgXBXlXgXlXgXlXgXgXBXlXgXxXBXgXxX",
"BXgXlXxXgXBXlXxXxXgXgXxXgXxXxXBXJXnXzXzXnXkXnXDX+ + CXhXCXDXzXzXzXCXCXfXnXCXzXnXkXSXSXSXSXZXHXHXHXHXjXfXfXjXjXHXHXHXHXHX+ hXhXhXhXhXhXhXhXhXhXhXfXjXjXHXHXZXZXSXSXFXFXkXnXzXCXnXfXCXCXzXzXzXDXCXhXCX+ + DXnXkXnXzXzXnXJXlXxXlXxXlXBXlXxXlXlXBXBXlXlXBXxXlXlXgXxX",
"xXxXBXaXxXxXxXxXaXaXxXxXxXaXxXaXxXkXnXnXkXfXhX+ + CXCXhXzXCXzXCXCXCXhXfXzXCXCXhXkXSXSXSXSXSXZXHXHXHXHXjXjXjXHXHXHXHXHX+ hXhXhXhXhXhXhXhXhXhXhXfXjXjXHXHXZXZXSXSXFXFXFXkXhXCXCXzXfXhXCXCXCXzXCXzXhXCXCX+ + hXfXkXnXnXkXxXxXxXxXxXxXxXxXxXxXxXxXxXxXxXxXxXxXxXxXxX",
"xXxXxXxXxXxXxXxXxXxXxXxXxXaXxXxXxXfXkXkXfXvXhX+ DXzXhXhXhXzXzXkXkXvXvXkXzXhXzXzXnXkXkXSXSXSXSXZXHXHXHXHXHXHXHXHXHXHX+ hXhXhXhXhXhXhXhXhXhXhXfXjXjXHXHXZXZXSXSXFXFXkXkXnXzXzXhXzXkXvXvXkXkXzXzXhXhXhXzXDX+ hXvXfXkXkXfXxXxXxXxXxXxXxXxXxXxXxXxXxXxXxXxXxXxXxXxXxX",
"HXHXHXHXHXHXHXHXHXHXHXHXHXHXHXHXjXvXkXfXvXvXkXzX+ CXhXhXkXnXzXzXkXfXnXnXCXzXzXhXhXnXkXkXSXSXSXSXZXHXHXHXHXHXHXHXHXCXhXhXhXhXhXhXhXhXhXhXhXfXjXjXHXHXZXZXSXSXFXFXkXkXnXhXhXzXzXCXnXnXfXkXzXzXnXkXhXhXCX+ zXkXvXvXfXkXJXjXjXjXjXjXjXjXjXjXjXjXjXjXjXjXjXjXjXjXjXjX",
"ZXZXZXZXZXZXZXZXZXZXZXZXZXZXZXZXjXjXJXfXfXfXvXkXzXCXDXhXnXkXnXhXnXnXnXhXnXnXnXnXnXhXnXnXkXSXSXSXSXZXHXHXHXHXHXHXhXhXhXhXhXhXhXhXhXhXhXhXfXjXjXHXHXZXZXSXSXFXFXkXnXnXhXnXnXnXnXnXhXnXnXnXhXnXkXnXhXDXCXzXkXvXfXfXfXvXHXHXHXjXjXjXjXHXHXHXHXHXHXHXHXHXHXHXHXHXHXHX",
"FXFXSXSXFXSXZXZXSXSXZXZXZXZXSXSXZXjXjXfXnXkXfXfXkXhXzXnXkXkXkXhXhXnXhXnXnXhXnXhXnXhXzXhXkXSXSXSXSXSXZXHXHXHXHXHXfXhXhXhXhXhXhXhXhXhXhXfXjXjXHXHXZXZXSXSXFXFXFXkXhXzXhXnXhXnXhXnXnXhXnXhXhXkXkXkXnXzXhXkXfXfXkXnXfXHXHXSXZXZXZXZXSXSXSXSXSXSXSXSXFXSXZXZXSXSXZXZX",
"SXSXSXSXSXZXZXZXZXZXZXZXZXZXZXSXZXjXjXvXnXnXkXfXkXkXkXkXkXfXkXhXCX+ CXhXhXzX+ + zXkXhXhXfXSXSXSXSXSXSXZXHXHXHXHXjXfXhXhXhXhXhXhXhXhXfXjXjXHXHXZXZXSXSXSXFXFXFXfXhXhXkXzX+ + zXhXhXCX+ CXhXkXfXkXkXkXkXkXfXkXnXnXvXHXZXSXSXZXZXZXSXFXSXSXSXFXSXSXFXSXZXSXFXFXSXZX",
"SXSXZXPXlXBXgXlXBXlXBXlXBXlXBXBXxXxXxXJXvXkXfXkXkXfXnXnXnXnXkXhXCXCX+ zXDXCXCXDX+ hXkXkXnXnXkXkXSXSXSXSXZXHXHXHXjXjXfXhXhXhXhXhXhXfXjXjXHXHXZXZXSXSXSXFXkXkXnXnXkXkXhX+ DXCXCXDXzX+ CXCXhXkXnXnXnXnXfXkXkXfXkXvXJXxXlXxXlXxXBXlXxXgXgXlXgXgXBXlXBXgXgXgXgXZXSXSX",
"SXSXLXLXPXbXbXPXlXPXPXlXPXPXlXlXBXlXxXxXJXvXfXnXnXfXnXnXzXzXnXkXzX+ CXhXzXCXCXCX+ zXnXkXnXnXnXkXSXSXFXFXSXZXHXHXHXjXjXfXhXhXhXhXfXjXjXHXHXZXZXSXSXFXFXFXkXnXnXnXkXnXzX+ CXCXCXzXhXCX+ zXkXnXzXzXnXnXfXnXnXfXvXJXgXBXbXlXPXlXlXlXlXlXlXPXgXPXlXbXlXlXlXlXxXxXSXSX",
"SXZXLXlXlXgXgXlXxXlXlXgXlXlXgXxXlXxXxXxXxXJXvXnXkXfXkXkXhXzXnXkXkXCX+ CXzXzXCXCXDXhXnXnXnXhXnXkXkXkXFXFXFXSXZXHXHXHXjXjXfXhXhXfXjXjXHXHXZXZXSXkXFXFXkXkXkXnXhXnXnXnXhXDXCXCXzXzXCX+ CXkXkXnXzXhXkXkXfXkXnXvXJXxXxXxXlXxXgXgXxXlXgXgXgXlXxXlXxXlXlXlXlXlXxXxXZXSX",
"FXZXLXPXlXxXlXgXxXlXgXlXgXlXxXxXgXxXxXxXxXJXvXkXhXhXhXnXnXnXkXnXnXkXzX+ DXzXzXzXzXnXhXzXzXnXkXkXnXfXkXhXhXnXnXkXHXHXHXjXjXfXfXjXjXHXHXkXkXkXnXnXnXhXhXnXkXkXnXzXzXhXnXzXzXzXzXDX+ zXkXnXnXkXnXnXnXhXhXhXkXJXxXxXxXxXgXxXlXgXxXlXxXBXlXgXxXlXgXlXgXlXlXlXxXxXHXZX",
"SXZXPXPXgXxXlXxXgXBXxXlXxXlXgXxXxXgXxXxXxXxXJXkXhXzXzXhXhXkXkXnXhXnXkXhX+ + CXhXzXhXCXCXCXCXnXnXhXkXKXnXhXzXhXnXnXkXHXHXjXfXfXjXHXkXnXhXhXzXzXCXCXCXzXhXnXnXCXCXCXCXhXzXhXCX+ + hXkXnXhXnXkXkXhXhXzXzXhXkXxXxXxXxXxXgXxXlXxXlXgXgXxXgXlXxXlXxXgXgXgXgXlXxXxXHXZX",
"SXZXPXPXlXgXlXgXxXlXgXgXlXlXgXlXgXxXxXxXxXxXxXfXnXhXhXhXnXkXkXkXnXhXnXkXnXDX+ CXnXzXCXzXCX+ zXkXkXkXkXKXnXhXCXCXzXzXhXhXhXhXnXhXhXzXzXzXCXCXCXCXCXzXnXkXkXzX+ CXzXCXzXnXCX+ DXnXkXnXhXnXkXkXkXnXhXhXhXnXvXxXxXxXxXgXlXxXgXgXxXlXxXBXlXxXlXlXgXlXlXlXgXlXxXxXjXZX",
"SXZXPXlXlXxXgXlXxXlXxXlXxXlXxXxXlXxXxXxXxXxXxXJXfXnXhXnXkXfXfXkXnXzXzXnXnXnXCX+ CXhXhXhXzXDXCXhXkXkXkXKXnXhXzXCXCXCXCXCXhXnXzXCXCXCXCXCXCXCXCXCXzXhXkXkXhXCXDXzXhXhXhXCX+ CXnXnXnXzXzXnXkXfXfXkXnXhXnXvXiXxXxXxXlXxXlXxXlXxXxXlXxXBXgXlXgXgXxXlXgXgXgXlXxXxXjXZX",
"SXZXPXlXlXgXgXlXxXlXlXgXlXlXgXxXgXxXlXxXxXxXxXxXvXfXkXfXfXfXfXfXhXCXhXhXnXnXnXCX+ CXzXhXhXzXhXzXzXzXzXnXkXnXhXzXCXCXCXzXhXzXDXIXIXIXIXIXIXIXIXDXzXhXzXzXzXhXzXhXhXzXCX+ CXnXnXnXhXhXCXhXfXfXfXfXfXkXvXxXxXxXxXxXlXgXgXxXlXgXxXBXgXxXxXlXxXlXBXlXgXlXgXlXxXxXjXZX",
"ZXZXPXlXlXgXgXlXxXlXlXgXlXlXgXlXxXlXxXgXxXxXxXxXxXJXvXGXfXkXkXfXnX+ CXzXhXnXnXnXzX+ + CXhXhXCXCXDXDXzXkXKXnXhXzXzXCXzXhXzXDXIXIXIXIXIXIXIXIXIXDXhXzXDXDXCXCXhXhXCX+ + zXnXnXnXhXzXCX+ nXfXkXkXfXvXvXiXxXxXxXxXxXlXxXgXxXlXgXxXgXxXBXlXgXxXlXgXlXgXlXgXlXxXxXjXZX",
"ZXZXPXlXlXxXlXgXxXlXgXlXgXlXxXgXxXgXxXlXxXxXxXxXxXxXBXJXGXkXkXfXkXhXzXhXkXhXhXnXnXnXCX+ + CXzX+ + DXzXkXKXkXnXhXzXzXhXzXDXDXDXDXDXDXDXDXDXDXDXCXnXzXDX+ + zXCX+ + CXnXnXnXhXhXkXhXzXhXkXfXkXkXvXiXxXxXxXxXxXxXxXlXgXgXxXlXxXlXBXgXxXgXlXxXlXxXgXxXgXgXgXxXxXjXZX",
"FXZXPXlXgXxXlXxXgXBXxXlXxXlXgXgXgXlXxXlXxXxXxXxXxXxXxXiXvXkXfXkXkXfXkXkXnXzXhXhXnXnXnXhXDX+ + DXDXDXhXkXkXKXnXhXhXhXnXCXCXCXCXCXCXCXCXCXCXCXCXzXkXhXDXDXDX+ + DXhXnXnXnXhXhXzXnXkXkXfXkXkXfXkXJXiXxXxXxXxXxXxXxXlXgXlXxXgXgXxXgXxXBXlXxXlXlXgXlXlXlXgXgXxXxXjXZX",
"SXZXPXPXlXgXlXgXxXlXgXgXlXlXgXlXxXgXlXxXxXxXxXxXxXxXxXxXxXfXfXnXhXfXfXkXhXCXzXhXhXnXhXnXhXzXCX+ + + CXkXhXKXkXnXhXnXhXzXzXzXzXzXzXzXzXzXzXzXzXhXkXCX+ + + CXzXhXnXhXnXhXhXzXCXhXkXfXfXhXnXfXvXxXxXxXxXxXxXxXxXxXlXxXlXxXlXxXxXlXxXBXgXlXgXgXxXlXxXgXBXlXxXxXjXZX",
"ZXZXPXlXlXxXgXlXxXlXxXlXxXlXxXlXBXlXxXxXlXxXxXxXxXxXxXxXxXvXkXnXnXkXkXfXzX+ CXzXhXnXkXhXkXkXkXhXhXCXCXkXkXKXkXnXhXnXhXzXzXzXzXzXzXzXzXzXzXzXzXnXKXCXCXhXhXkXkXkXhXkXnXhXzXCX+ zXfXkXkXnXnXkXiXxXxXxXxXxXxXxXxXgXlXgXgXBXlXgXxXgXgXxXxXlXxXlXBXlXgXlXBXlXxXxXjXZX",
"ZXZXPXlXlXxXlXxXgXBXgXlXgXlXgXgXgXlXlXxXgXgXxXxXxXxXxXxXxXxXBXfXkXkXkXfXkXhXzXhXnXkXnXhXhXnXkXkXkXkXkXkXkXkXKXkXnXnXhXhXhXhXhXhXhXhXhXhXhXhXhXnXKXkXkXkXkXkXnXhXhXnXkXnXhXzXhXkXfXkXkXkXvXJXxXxXxXxXxXxXxXxXgXgXgXBXgXgXgXxXgXgXgXxXgXgXBXBXgXlXxXbXgXlXxXxXjXZX",
"SXZXlXlXxXxXxXxXxXxXxXxXxXxXxXxXxXxXxXxXxXxXxXxXxXxXxXxXxXxXxXJXvXfXfXfXkXkXfXfXkXfXhXCXzXhXhXnXnXkXkXkXkXkXKXkXkXnXhXzXzXzXzXzXzXzXzXzXzXzXzXkXKXkXkXnXnXhXhXzXCXhXfXkXfXfXkXkXfXGXvXiXiXxXxXxXxXxXxXxXxXxXxXxXxXxXxXxXxXxXxXxXxXxXxXxXxXxXxXxXxXxXxXxXxXxXjXZX",
"SXZXHXxXxXxXxXxXxXxXxXxXxXxXxXxXxXxXxXxXxXxXxXxXxXxXxXxXxXxXxXxXxXJXvXfXfXhXnXkXfXvXhX+ CXzXhXhXnXfXfXfXkXkXKXKXkXnXhXhXhXhXhXhXhXhXhXhXhXhXhXkXKXfXfXnXhXhXzXCX+ hXvXfXkXnXhXfXGXvXJXxXxXxXxXxXxXxXxXxXxXxXxXxXxXxXxXxXxXxXxXxXxXxXxXxXxXxXxXxXxXxXxXxXxXjXjXZX",
"ZXZXZXZXHXHXHXHXHXHXHXHXHXHXHXHXHXHXHXjXjXjXjXjXjXjXjXjXjXjXjXjXjXjXJXvXkXnXnXnXkXfXfXzX+ CXCXhXfXvXfXfXfXfXKXKXkXnXnXnXnXnXnXnXnXnXnXnXnXnXnXKXKXGXvXfXhXCXCX+ zXfXfXkXnXnXnXkXvXjXjXjXjXjXjXjXjXjXjXjXjXjXjXjXjXjXjXjXjXjXjXjXjXjXjXjXjXjXjXjXjXjXjXjXjXjXHXZX",
"ZXZXZXZXZXZXZXHXHXZXZXZXZXZXZXZXZXZXZXZXZXZXZXZXHXHXjXjXjXjXjXjXjXjXjXjXHXfXkXkXkXvXvXkXhXhXnXvXfXfXfXfXvXvXKXKXkXnXnXnXnXnXnXnXnXnXnXnXnXnXnXKXKXvXvXfXvXnXhXhXkXvXvXkXkXkXfXjXjXjXjXjXjXjXjXAXjXjXjXHXjXjXHXHXHXHXHXHXHXHXHXjXjXjXjXjXHXHXZXZXZXZXZXZXZXZXZXSX",
"SXSXZXZXZXZXZXZXZXcXcXSXSXSXSXcXcXcXcXcXcXSXSXFXFXcXcXZXZXZXZXjXjXjXjXjXjXJXvXfXvXvXfXvXvXvXvXvXvXfXfXvXvXvXKXkXkXkXkXkXkXkXkXkXkXkXkXkXkXkXkXKXvXvXvXvXvXvXvXvXvXfXvXvXfXvXiXjXjXjXjXAXjXjXjXjXjXjXjXZXZXZXcXcXSXcXcXcXZXZXZXHXHXHXHXHXZXZXZXZXcXcXSXSXFXFXFXFX",
"SXSXZXZXZXSXSXZXSXSXSXSXFXFXSXSXSXSXSXSXSXSXFXFXpXpXFXSXSXZXZXZXZXZXjXjXjXjXjXjXjXJXvXkXvXJXJXvXvXJXJXvXvXvXKXkXkXnXnXnXnXnXnXnXnXnXnXnXnXnXnXKXvXvXvXfXfXvXvXfXkXJXJXJXjXjXjXjXjXjXAXAXAXjXjXjXjXjXHXZXZXSXSXSXSXSXSXSXZXZXZXZXHXHXHXHXZXZXZXZXSXSXSXSXFXFXFXFX",
"lXBXlXBXBXlXBXgXxXlXxXgXgXxXgXlXlXBXgXbXBXlXBXgXxXlXxXlXxXxXxXxXxXxXxXjXjXjXjXjXjXiXJXvXvXvXvXJXvXJXJXvXJXvXfXkXkXkXkXkXkXkXkXkXkXkXkXkXkXkXkXKXvXvXJXvXJXJXJXJXJXJXaXxXxXxXxXxXxXxXxXxXxXBXjXjXjXjXZXZXZXPXlXBXgXlXBXlXBXlXBXlXBXBXlXBXgXxXlXxXlXxXlXxXlXxXgXgX",
"lXPXPXlXlXbXlXPXlXlXlXPXlXlXPXbXbXlXPXbXlXbXlXPXlXlXPXlXlXPXxXBXxXxXxXBXjXjXjXjXjXjXxXxXiXJXiXJXJXJXJXvXvXJXfXfXfXkXkXkXkXkXkXkXkXkXkXkXkXfXfXKXvXJXJXJXJXJXJXxXxXxXxXxXxXxXxXxXxXxXxXxXxXBXjXjXjXjXZXZXLXLXPXbXbXPXlXPXPXlXPXPXlXlXbXlXPXlXlXPXlXlXPXlXbXlXPXlX",
"gXlXlXgXxXlXxXlXxXlXxXgXBXgXgXBXlXxXlXlXxXlXxXlXxXlXBXlXxXlXBXxXgXgXxXxXjXjXjXjXjXjXxXxXxXiXiXiXiXJXJXvXvXvXfXfXfXfXfXfXfXfXfXfXfXfXfXfXfXfXfXKXvXJXJXJXaXaXaXxXxXxXxXxXxXxXxXxXxXxXxXgXxXxXjXjXjXjXZXZXLXlXlXgXgXlXxXlXlXgXlXlXgXxXlXxXlXxXlXBXlXxXlXBXxXxXgXBX",
"lXgXlXxXxXgXxXgXxXgXxXlXBXxXlXxXlXxXgXlXxXgXxXgXxXgXxXlXgXlXxXlXxXlXxXxXjXjXjXjXjXjXxXxXxXxXxXxXxXxXxXxXxXvXvXvXvXvXvXvXvXvXvXvXvXvXvXvXvXvXvXxXxXxXxXxXxXxXxXxXxXxXxXxXxXxXxXxXxXxXxXxXxXxXjXjXjXHXZXZXLXPXlXxXlXgXxXlXgXlXgXlXxXxXgXxXgXxXgXxXlXgXlXxXlXxXlXBX",
"lXxXlXgXxXxXgXlXgXxXxXxXBXgXgXxXgXgXBXxXgXxXgXlXxXxXlXgXxXlXxXxXgXBXxXxXjXjXjXjXjXjXxXxXxXxXxXxXxXxXxXxXxXJXJXJXJXJXJXJXJXJXJXJXJXJXJXJXJXJXJXxXxXxXxXxXxXxXxXxXxXxXxXxXxXxXxXxXxXxXxXxXxXxXjXjXjXZXcXZXPXPXgXxXlXxXgXBXxXlXxXlXgXxXxXgXlXgXxXlXgXxXlXxXxXxXxXBX",
"gXlXlXgXlXgXxXlXxXlXxXlXBXxXlXxXlXxXgXlXxXgXxXgXxXgXxXlXgXlXxXlXxXlXxXxXjXjXjXjXjXjXxXxXxXxXxXxXxXxXxXxXxXxXxXxXxXxXxXxXxXxXxXxXxXxXxXxXxXxXxXxXxXxXxXxXxXxXxXxXxXxXxXxXxXxXxXxXxXxXxXxXxXxXjXjXjXZXcXZXPXPXlXgXlXgXxXlXgXgXlXlXgXlXgXxXlXxXlXBXlXgXgXxXgXxXlXgX",
"lXxXlXxXxXlXxXgXxXlXxXxXBXgXgXxXgXgXBXxXgXxXgXlXxXxXlXgXxXlXxXxXgXBXxXxXjXjXjXjXjXjXxXxXxXxXxXxXxXxXxXxXxXxXxXxXxXxXxXxXxXxXxXxXxXxXxXxXxXxXxXxXxXxXxXxXxXxXxXxXxXxXxXxXxXxXxXxXxXxXxXxXxXxXjXjXHXZXSXZXPXlXlXxXgXlXxXlXxXlXxXlXxXxXlXxXgXxXlXxXlXxXlXxXlXxXgXBX",
"gXlXlXgXxXgXxXlXxXgXxXlXgXxXlXxXgXxXBXlXxXgXxXBXxXxXBXlXgXgXxXgXxXlXxXxXjXjXjXjXHXjXxXxXxXxXxXxXxXxXxXxXxXxXxXxXxXxXxXxXxXxXxXxXxXxXxXxXxXxXxXxXxXxXxXxXxXxXxXxXxXxXxXxXxXxXxXxXxXgXxXlXxXxXjXjXHXcXSXZXPXlXlXgXgXlXxXlXlXgXlXlXgXxXgXxXlXxXgXlXgXxXgXxXgXxXlXBX",
"lXxXlXxXxXlXxXgXxXlXxXgXBXxXgXxXlXxXgXxXxXlXxXgXxXBXxXlXxXlXxXlXxXgXxXxXjXjXHXjXHXjXxXxXxXxXxXxXxXxXxXxXxXxXxXxXxXxXxXxXxXxXxXxXxXxXxXxXxXxXxXxXxXxXxXxXxXxXxXxXxXxXxXxXxXxXxXxXxXlXxXgXxXxXjXjXHXcXSXZXPXlXlXxXgXlXxXlXxXlXxXlXxXxXlXxXgXxXlXxXlXxXlXxXlXgXxXgX",
"gXlXlXgXxXgXxXlXxXgXxXlXBXxXlXxXgXxXxXlXxXgXxXBXxXgXlXgXxXlXxXgXxXlXxXxXjXHXHXjXHXjXxXxXxXxXxXxXxXxXxXxXxXxXxXxXxXxXxXxXxXxXxXxXxXxXxXxXxXxXxXxXxXxXxXxXxXxXxXxXxXxXxXxXxXxXxXxXxXgXxXlXxXxXjXjXZXcXSXZXPXlXlXgXgXlXxXlXlXgXlXlXgXxXgXxXlXxXgXlXgXxXgXxXgXgXxXlX",
"gXlXlXgXlXxXlXxXgXxXgXxXgXgXgXxXgXlXxXlXgXxXBXgXxXxXlXxXlXxXgXxXgXxXxXxXjXHXZXHXHXjXgXxXxXxXxXxXxXxXxXxXxXxXxXxXxXxXxXxXxXxXxXxXxXxXxXxXxXxXxXxXxXxXxXxXxXxXxXxXxXxXxXxXxXxXlXxXgXxXgXxXxXxXjXjXZXcXSXZXPXlXlXgXgXlXxXlXlXgXlXlXgXlXxXlXxXgXxXlXxXxXgXxXlXxXgXxX",
"lXgXlXxXgXxXgXxXlXxXgXxXlXgXgXxXgXgXxXxXgXxXgXgXxXxXgXBXgXxXgXBXgXxXxXxXjXHXSXZXHXjXPXxXxXxXxXxXxXxXxXxXxXxXxXxXxXxXxXxXxXxXxXxXxXxXxXxXxXxXxXxXxXxXxXxXxXxXxXxXgXxXxXxXxXxXxXxXgXBXgXxXxXxXjXHXZXcXSXZXPXlXlXxXlXgXxXlXgXlXgXlXxXgXxXgXxXlXxXgXlXgXgXxXBXlXlXxX",
"lXxXlXgXgXgXlXxXlXgXxXgXxXxXgXxXgXlXxXlXlXxXBXgXxXxXgXxXgXlXxXlXxXgXxXxXjXHXSXSXZXjXPXlXgXxXlXxXxXxXxXxXxXxXxXxXxXxXxXxXxXxXxXxXxXxXxXxXxXxXxXxXxXxXxXxXxXxXxXxXxXxXxXxXgXxXgXlXxXlXxXgXxXxXjXHXZXcXSXZXPXlXgXxXlXxXgXBXxXlXxXlXgXgXgXlXxXlXgXgXxXgXgXxXlXlXxXlX",
"gXlXlXgXlXxXgXlXxXlXxXlXlXgXlXxXgXgXxXxXlXgXlXgXxXxXgXxXlXxXgXlXgXBXxXxXjXHXSXSXSXZXPXPXlXgXlXgXxXxXxXxXxXxXxXxXxXxXxXxXxXxXxXxXxXxXxXxXxXxXxXxXxXxXxXxXxXxXxXxXxXxXxXxXgXxXlXxXgXlXgXBXxXxXjXHXZXcXSXZXPXPXlXgXlXgXxXlXgXgXlXlXgXlXxXgXlXxXlXxXgXlXgXgXlXgXlXxX",
"lXxXlXxXlXBXlXxXxXlXxXlXxXxXlXBXgXlXxXlXlXxXBXgXgXxXgXxXgXlXgXgXxXBXxXxXjXHXSXSXFXZXPXPXlXxXgXlXxXlXxXlXxXlXxXlXBXlXxXxXlXxXgXxXlXxXxXgXxXlXxXxXlXBXgXlXxXlXlXxXBXgXgXxXgXxXgXlXgXgXxXBXxXxXjXHXZXcXSXZXPXPXlXxXgXlXxXlXxXlXxXlXxXlXBXlXxXxXlXxXgXxXlXxXgXlXxXxX",
"lXgXlXgXgXgXlXlXxXgXxXlXgXBXlXBXgXlXxXBXlXxXxXgXgXxXgXxXxXBXxXBXaXxXxXxXjXHXSXSXFXZXPXPXlXxXlXxXgXBXgXlXgXlXgXgXgXlXlXxXgXgXxXxXlXxXxXlXxXlXgXBXlXBXgXlXxXBXlXxXxXgXgXxXgXxXxXBXxXBXaXxXxXxXjXHXZXcXSXZXPXPXlXxXlXxXgXBXgXlXgXlXgXgXgXlXlXxXgXgXxXxXlXxXlXlXlXxX",
"xXxXxXxXxXxXxXxXxXxXxXxXxXxXBXxXxXBXaXxXxXxXaXaXxXxXxXaXxXaXxXaXxXaXaXxXjXHXSXSXSXZXlXBXxXxXxXxXxXxXxXxXxXxXxXxXxXxXxXxXxXxXxXxXxXxXxXxXxXxXxXxXBXxXxXBXaXxXxXxXaXaXxXxXxXaXxXaXxXaXxXaXaXxXjXHXZXcXSXZXBXBXxXxXxXxXxXxXxXxXxXxXxXxXxXxXxXxXxXxXxXxXxXxXxXBXBXlX",
"xXxXxXxXxXxXxXxXxXxXxXxXxXxXxXxXxXxXxXxXxXxXxXxXxXxXxXaXxXxXxXxXxXxXaXjXjXHXSXSXSXZXHXxXxXxXxXxXxXxXxXxXxXxXxXxXxXxXxXxXxXxXxXxXxXxXxXxXxXxXxXxXxXxXxXxXxXxXxXxXxXxXxXxXxXaXxXxXxXxXxXxXaXxXjXHXZXcXSXZXZXxXxXxXxXxXxXxXxXxXxXxXxXxXxXxXxXxXxXxXxXxXxXxXxXxXxXxX",
"jXjXjXjXjXjXjXjXjXjXjXjXjXjXjXjXjXjXjXjXjXjXjXjXjXjXjXjXjXjXjXjXjXjXjXjXjXHXSXSXFXFXZXHXHXjXjXjXjXjXjXjXjXjXjXjXjXjXjXjXjXjXjXjXjXjXjXjXjXjXjXjXjXjXjXjXjXjXjXjXjXjXjXjXjXjXjXjXjXjXjXjXjXjXjXHXZXcXSXSXZXZXHXHXHXjXjXjXjXjXjXjXjXjXjXjXjXjXjXjXjXjXjXjXjXjXjXHX",
"HXHXHXHXHXHXHXHXHXHXHXHXHXHXHXHXHXHXHXHXHXHXHXHXHXHXHXHXHXHXHXHXHXHXHXHXHXHXSXSXFXFXSXSXZXHXHXHXHXZXHXHXHXHXHXHXHXHXHXHXHXHXHXHXHXHXHXHXHXHXHXHXHXHXHXHXHXHXHXHXHXHXHXHXHXHXHXHXZXZXZXZXZXZXZXZXZXcXSXSXSXSXZXZXHXHXHXHXHXHXHXHXHXHXjXjXjXjXjXjXjXjXjXjXHXHXHXHX",
"ZXZXSXcXZXZXSXcXZXZXZXZXZXZXcXcXcXcXcXcXcXcXcXcXSXSXSXcXZXZXZXcXcXcXcXcXcXcXSXFXFXFXFXFXFXSXSXFXSXSXSXSXSXSXFXFXSXSXSXSXSXSXFXFXSXSXSXZXZXZXZXSXSXSXSXSXcXZXZXZXZXZXZXZXZXZXZXZXcXcXSXSXcXcXZXZXcXcXFXFXSXSXSXZXZXZXSXFXSXSXSXSXSXSXSXSXcXZXZXZXZXcXSXSXSXSXSXSX",
"ZXZXSXSXcXSXFXSXcXcXcXcXcXcXSXSXSXSXSXSXSXSXSXSXFXFXFXSXcXcXSXSXSXSXSXSXSXSXFXFXFXFXFXFXFXFXFXFXFXFXFXFXFXFXFXFXFXFXFXFXFXSXFXFXSXSXSXSXZXZXSXSXSXSXSXSXcXcXZXZXZXZXcXcXZXZXZXZXcXcXSXSXcXcXZXZXcXcXFXFXSXSXSXSXZXZXFXFXSXSXSXSXSXSXSXSXcXcXZXZXcXcXSXSXSXSXSXSX",
"FXFXFXFXFXFXFXFXFXFXFXFXFXFXFXFXFXFXFXFXFXFXFXFXFXFXFXFXFXFXFXFXFXFXFXFXFXFXFXFXFXFXFXFXFXFXFXFXFXFXFXFXFXFXFXFXFXFXFXFXFXFXFXFXFXFXFXFXFXFXFXFXFXFXFXFXFXFXFXFXFXFXFXFXFXFXFXFXFXFXFXFXFXFXFXFXFXFXFXFXFXFXFXFXFXFXFXFXFXFXFXFXFXFXFXFXFXFXFXFXFXFXFXFXFXFXFXFX",
"FXFXFXFXFXFXFXFXFXFXFXFXFXFXFXFXFXFXFXFXFXFXFXFXFXFXFXFXFXFXFXFXFXFXFXFXFXFXFXFXFXFXFXFXFXFXFXFXFXFXFXFXFXFXFXFXFXFXFXFXFXFXFXFXFXFXFXFXFXFXFXFXFXFXFXFXFXFXFXFXFXFXFXFXFXFXFXFXFXFXFXFXFXFXFXFXFXFXFXFXFXFXFXFXFXFXFXFXFXFXFXFXFXFXFXFXFXFXFXFXFXFXFXFXFXFXFXFX"
};
