/* XPM */
static char *_07c82eee3544cbfc0ffeb3c07f4b703Ejh2cB8FPw5ihPiU[] = {
/* columns rows colors chars-per-pixel */
"64 64 256 2 ",
"   c black",
".  c blue",
"X  c green",
"o  c red",
"O  c cyan",
"+  c yellow",
"@  c magenta",
"#  c white",
"$  c #7B7B7B",
"%  c #7B7B7B",
"&  c #7B7B7B",
"*  c #7B7B7B",
"=  c #7B7B7B",
"-  c #7B7B7B",
";  c #7B7B7B",
":  c #7B7B7B",
">  c #7B7B7B",
",  c #7B7B7B",
"<  c #7B7B7B",
"1  c #7B7B7B",
"2  c #7B7B7B",
"3  c #7B7B7B",
"4  c #7B7B7B",
"5  c #7B7B7B",
"6  c #7B7B7B",
"7  c #7B7B7B",
"8  c #7B7B7B",
"9  c #7B7B7B",
"0  c #7B7B7B",
"q  c #7B7B7B",
"w  c #7B7B7B",
"e  c #7B7B7B",
"r  c #7B7B7B",
"t  c #7B7B7B",
"y  c #7B7B7B",
"u  c #7B7B7B",
"i  c #7B7B7B",
"p  c #7B7B7B",
"a  c #7B7B7B",
"s  c #7B7B7B",
"d  c #7B7B7B",
"f  c #7B7B7B",
"g  c #7B7B7B",
"h  c #7B7B7B",
"j  c #7B7B7B",
"k  c #7B7B7B",
"l  c #7B7B7B",
"z  c #7B7B7B",
"x  c #7B7B7B",
"c  c #7B7B7B",
"v  c #7B7B7B",
"b  c #7B7B7B",
"n  c #7B7B7B",
"m  c #7B7B7B",
"M  c #7B7B7B",
"N  c #7B7B7B",
"B  c #7B7B7B",
"V  c #7B7B7B",
"C  c #7B7B7B",
"Z  c #7B7B7B",
"A  c #7B7B7B",
"S  c #7B7B7B",
"D  c #7B7B7B",
"F  c #7B7B7B",
"G  c #7B7B7B",
"H  c #7B7B7B",
"J  c #7B7B7B",
"K  c #7B7B7B",
"L  c #7B7B7B",
"P  c #7B7B7B",
"I  c #7B7B7B",
"U  c #7B7B7B",
"Y  c #7B7B7B",
"T  c #7B7B7B",
"R  c #7B7B7B",
"E  c #7B7B7B",
"W  c #7B7B7B",
"Q  c #7B7B7B",
"!  c #7B7B7B",
"~  c #7B7B7B",
"^  c #7B7B7B",
"/  c #7B7B7B",
"(  c #7B7B7B",
")  c #7B7B7B",
"_  c #7B7B7B",
"`  c #7B7B7B",
"'  c #7B7B7B",
"]  c #7B7B7B",
"[  c #7B7B7B",
"{  c #7B7B7B",
"}  c #7B7B7B",
"|  c #7B7B7B",
" . c #7B7B7B",
".. c #7B7B7B",
"X. c #7B7B7B",
"o. c #7B7B7B",
"O. c #7B7B7B",
"+. c #7B7B7B",
"@. c #7B7B7B",
"#. c #7B7B7B",
"$. c #7B7B7B",
"%. c #7B7B7B",
"&. c #7B7B7B",
"*. c #7B7B7B",
"=. c #7B7B7B",
"-. c #7B7B7B",
";. c #7B7B7B",
":. c #7B7B7B",
">. c #7B7B7B",
",. c #7B7B7B",
"<. c #7B7B7B",
"1. c #7B7B7B",
"2. c #7B7B7B",
"3. c #7B7B7B",
"4. c #7B7B7B",
"5. c #7B7B7B",
"6. c #7B7B7B",
"7. c #7B7B7B",
"8. c #7B7B7B",
"9. c #7B7B7B",
"0. c #7B7B7B",
"q. c #7B7B7B",
"w. c #7B7B7B",
"e. c #7B7B7B",
"r. c #7B7B7B",
"t. c #7B7B7B",
"y. c #7B7B7B",
"u. c #7B7B7B",
"i. c #7B7B7B",
"p. c #7B7B7B",
"a. c #7B7B7B",
"s. c #7B7B7B",
"d. c #7B7B7B",
"f. c #7B7B7B",
"g. c #7B7B7B",
"h. c #7B7B7B",
"j. c #7B7B7B",
"k. c #7B7B7B",
"l. c #7B7B7B",
"z. c #7B7B7B",
"x. c #7B7B7B",
"c. c #7B7B7B",
"v. c #7B7B7B",
"b. c #7B7B7B",
"n. c #7B7B7B",
"m. c #7B7B7B",
"M. c #7B7B7B",
"N. c #7B7B7B",
"B. c #7B7B7B",
"V. c #7B7B7B",
"C. c #7B7B7B",
"Z. c #7B7B7B",
"A. c #7B7B7B",
"S. c #7B7B7B",
"D. c #7B7B7B",
"F. c #7B7B7B",
"G. c #7B7B7B",
"H. c #7B7B7B",
"J. c #7B7B7B",
"K. c #7B7B7B",
"L. c #7B7B7B",
"P. c #7B7B7B",
"I. c #7B7B7B",
"U. c #7B7B7B",
"Y. c #7B7B7B",
"T. c #7B7B7B",
"R. c #7B7B7B",
"E. c #7B7B7B",
"W. c #7B7B7B",
"Q. c #7B7B7B",
"!. c #7B7B7B",
"~. c #7B7B7B",
"^. c #7B7B7B",
"/. c #7B7B7B",
"(. c #7B7B7B",
"). c #7B7B7B",
"_. c #7B7B7B",
"`. c #7B7B7B",
"'. c #7B7B7B",
"]. c #7B7B7B",
"[. c #7B7B7B",
"{. c #7B7B7B",
"}. c #7B7B7B",
"|. c #7B7B7B",
" X c #7B7B7B",
".X c #7B7B7B",
"XX c #7B7B7B",
"oX c #7B7B7B",
"OX c #7B7B7B",
"+X c #7B7B7B",
"@X c #7B7B7B",
"#X c #7B7B7B",
"$X c #7B7B7B",
"%X c #7B7B7B",
"&X c #7B7B7B",
"*X c #7B7B7B",
"=X c #7B7B7B",
"-X c #7B7B7B",
";X c #7B7B7B",
":X c #7B7B7B",
">X c #7B7B7B",
",X c #7B7B7B",
"<X c #7B7B7B",
"1X c #7B7B7B",
"2X c #7B7B7B",
"3X c #7B7B7B",
"4X c #7B7B7B",
"5X c #7B7B7B",
"6X c #7B7B7B",
"7X c #7B7B7B",
"8X c #7B7B7B",
"9X c #7B7B7B",
"0X c #7B7B7B",
"qX c #7B7B7B",
"wX c #7B7B7B",
"eX c #7B7B7B",
"rX c #7B7B7B",
"tX c #525239",
"yX c #524131",
"uX c gray16",
"iX c #BD0000",
"pX c #312910",
"aX c #832000",
"sX c #4A3929",
"dX c #A40000",
"fX c #523929",
"gX c #392910",
"hX c #413120",
"jX c #392918",
"kX c #D50000",
"lX c #414A31",
"zX c #291808",
"xX c #181008",
"cX c #9C0000",
"vX c #E60000",
"bX c #8B0000",
"nX c #625239",
"mX c #EE0000",
"MX c #5A4129",
"NX c gray32",
"BX c #414141",
"VX c #6A4120",
"CX c #181818",
"ZX c #7B0000",
"AX c #202020",
"SX c #313131",
"DX c #312010",
"FX c #394129",
"GX c #B40000",
"HX c #4A3118",
"JX c #293118",
"KX c #292008",
"LX c #CD0000",
"PX c #4A3920",
"IX c #202908",
"UX c #313920",
/* pixels */
"SXjXSXSXjXGXGXiXiXiXLXGXGXdXDXSXxXDXhXdXGXiXLXLXLXGXGXdXdXGXLXLXiXLXiXiXLXiXLXLXiXLXiXLXLXiXLXGXSXpXDXSXSXDXgXfXjXSXSXgXSXSXDXSX",
"SXpXSXSXDXSXGXGXiXLXiXLXiXGXGXGXGXdXiXiXiXiXLXLXvXmXvXLXLXiXiXdXdXSXjXyXfXjXdXdXGXLXLXLXiXiXGXdXSXDXSXSXDXgXSXSXgXSXSXSXDXjXSXDX",
"SXSXjXgXSXSXlXdXGXLXiXLXGXdXpXyXyXyXpXfXdXdXGXiXmXmXkXiXiXdXDXSXjXyXSXhXjXSXhXyXdXGXiXLXiXGXgXSXDXSXSXDXSXSXIXSXSXSXDXSXfXpXSXDX",
"SXSXfXgXSXfXSXSXdXiXGXdXSXlXSXSXSXjXpXhXjXhXhXdXkXmXvXdXDXSXfXyXpXfXgXDXgXSXSXyXfXdXiXLXGXdXDXDXSXSXSXSXSXUXDXSXDXSXDXhXpXSXSXCX",
"DXSXgXfXjXDXDXyXdXGXdXPXDXDXhXDXSXgXyXPXjXgXSXdXiXiXdXSXSXSXDXSXSXDXSXDXSXDXDXjXfXdXLXLXdXDXSXDXjXDXSXDXSXDXfXgXSXDXSXSXDXSXSXDX",
"pXSXfXDXgXpXgXSXSXdXdXDXgXSXjXfXMXjXhXgXDXdXiXiXiXhXpXSXfXDXDXSXDXSXSXpXSXpXSXfXpXjXiXLXdXDXSXDXUXSXDXpXDXSXgXhXfXpXSXzXDXSXSXpX",
"SXSXSXSXDXlXhXDXyXdXGXjXgXgXhXjXDXSXdXiXiXLXiXGXUXSXfXDXSXDXDXDXSXgXSXSXpXhXpXfXpXfXiXLXdXhXjXSXDXhXuXSXDXDXSXgXjXhXDXSXDXSXDXpX",
"SXSXSXDXgXSXgXgXSXSXdXdXSXDXfXdXGXLXLXiXdXDXSXDXSXpXhXDXDXSXhXDXSXSXDXhXpXSXpXpXSXjXGXLXdXSXgXSXxXDXuXDXhXDXFXhXDXjXDXSXSXSXSXhX",
"SXDXSXDXpXfXgXPXjXyXdXGXGXiXiXiXLXiXfXDXDXSXfXgXDXhXpXSXDXSXDXDXSXDXSXgXlXjXpXhXpXUXdXiXdXDXSXDXDXSXuXDXSXgXSXjXhXgXhXDXDXSXSXDX",
"gXhXDXSXgXSXfXhXDXyXSXGXLXGXLXdXzXSXSXgXSXDXjXlXSXDXpXSXpXDXSXDXDXSXDXhXhXSXSXDXpXdXGXiXdXpXDXzXSXzXzXSXFXDXSXlXDXjXDXpXSXSXUXhX",
"zXSXSXDXSXpXpXpXDXfXpXdXLXGXdXDXSXhXyXSXSXlXgXSXgXDXDXhXpXSXDXSXDXpXSXjXyXjXgXhXdXLXvXLXGXgXDXDXDXSXDXDXDXSXSXSXSXDXPXjXSXSXpXpX",
"jXSXDXDXfXDXpXPXSXSXfXpXdXLXGXDXDXSXDXgXSXDXfXgXgXpXDXhXDXSXDXSXgXgXgXfXDXDXdXGXLXvXvXvXiXSXjXxXSXDXSXDXpXDXSXSXDXhXjXDXpXxXpXSX",
"pXDXUXSXpXDXhXpXSXSXSXSXSXdXLXdXdXfXDXfXSXFXhXlXDXDXhXgXSXDXfXhXjXgXSXGXGXiXiXiXiXLXvXLXiXSXgXfXhXhXDXSXSXDXPXSXSXSXSXDXDXzXhXDX",
"PXpXSXDXSXjXhXzXSXDXDXgXnXSXdXLXdXdXdXSXgXhXgXjXDXSXDXjXhXgXfXhXSXdXGXiXiXdXdXPXfXPXjXGXiXdXhXDXhXjXDXpXDXSXSXhXpXhXSXDXSXUXDXSX",
"pXSXDXSXSXSXDXhXSXDXpXgXfXSXDXiXLXiXGXdXSXDXfXjXhXPXfXhXfXfXgXSXdXiXdXdXdXSXDXhXyXSXyXSXfXLXGXdXhXpXhXDXhXDXSXpXSXpXSXSXDXhXDXzX",
"SXDXDXhXSXpXDXgXSXDXDXfXjXhXgXGXGXiXiXLXGXdXSXgXSXpXPXhXDXSXGXiXiXdXdXjXfXPXfXhXSXyXyXyXpXdXLXiXGXgXfXfXDXSXDXSXgXhXgXSXDXUXfXDX",
"PXpXSXDXjXhXDXpXpXPXjXhXfXfXdXaXiXLXdXDXdXiXLXLXGXdXlXDXGXGXGXGXdXlXfXjXSXSXgXPXSXgXSXhXSXfXgXLXiXdXzXgXhXVXPXhXDXDXpXSXzXSXlXSX",
"pXSXSXDXSXgXDXhXgXyXfXjXhXDXGXkXiXdXpXDXDXhXjXdXLXdXGXGXGXLXdXDXfXjXlXfXgXfXDXpXFXSXUXSXSXSXSXdXiXLXGXpXDXhXVXjXhXlXUXzXDXhXSXDX",
"SXgXDXSXjXhXjXyXfXPXgXSXdXdXLXLXLXdXjXDXgXSXgXgXdXiXiXiXLXiXdXSXDXSXDXSXgXjXfXjXSXSXSXgXhXSXjXSXdXLXLXiXdXhXjXnXPXhXhXDXpXpXSXSX",
"DXfXpXpXjXyXhXSXgXdXdXGXGXGXiXGXGXGXGXiXLXGXiXiXLXiXiXGXiXLXGXSXSXDXpXhXjXfXSXSXDXfXDXgXjXDXpXjXhXGXiXiXLXiXdXgXyXPXhXDXpXSXSXhX",
"SXUXjXfXPXPXdXGXiXGXdXdXdXSXPXDXzXgXfXjXjXfXfXjXfXjXjXdXiXLXiXdXSXSXSXhXSXSXSXSXSXpXpXSXSXDXSXDXDXdXGXGXGXiXLXdXfXhXjXhXDXxXjXDX",
"hXhXfXgXgXdXGXiXiXiXGXdXSXfXSXSXjXfXSXhXyXyXhXyXhXfXyXpXdXiXLXiXdXdXpXPXSXSXgXfXfXgXSXgXSXDXDXCXbXdXdXpXpXdXiXLXiXdXhXPXPXjXDXDX",
"gXhXgXdXGXiXiXGXiXdXdXSXSXfXSXSXSXSXhXjXfXpXjXfXjXyXBXjXfXdXdXdXLXiXdXjXSXjXfXpXSXDXDXDXDXDXDXDXdXdXpXhXfXpXfXGXLXiXdXjXjXgXgXhX",
"SXdXGXGXLXdXhXdXiXGXDXSXhXDXSXDXzXuXSXSXSXjXfXfXjXSXhXBXnXjXSXbXbXiXiXdXSXSXDXfXhXjXlXDXDXgXDXbXdXdXDXfXfXyXhXSXyXGXLXdXdXfXjXgX",
"GXGXGXSXSXDXSXSXGXiXdXuXSXhXDXfXxXgXSXDXSXhXjXjXhXgXpXfXyXfXyXMXSXbXiXiXdXDXlXjXgXhXDXfXpXDXSXdXdXSXDXSXSXgXjXtXgXjXdXGXdXiXiXGX",
"fXpXhXSXfXyXSXSXdXiXGXDXDXSXSXDXDXhXSXDXSXjXjXyXSXhXhXSXSXjXhXyXyXSXbXGXiXdXSXSXPXyXhXhXDXSXdXGXGXjXfXSXDXSXSXfXhXyXfXSXPXSXfXDX",
"pXfXfXhXyXSXSXnXDXGXGXdXuXSXDXSXSXfXgXfXDXfXfXgXfXpXSXDXDXSXDXjXfXBXyXbXiXLXdXPXSXjXjXSXSXdXGXLXGXSXSXDXzXgXDXfXSXSXjXfXyXjXSXjX",
"DXhXSXpXjXlXgXyXfXdXGXGXSXhXUXSXSXSXDXSXSXSXSXjXSXgXjXjXDXDXDXPXpXyXfXSXbXLXiXdXSXSXDXdXdXiXLXLXGXpXyXSXSXSXDXSXjXSXpXSXjXfXfXSX",
"DXSXDXhXgXDXgXfXfXDXiXiXdXSXfXgXSXDXSXDXSXDXfXjXjXfXjXSXDXSXDXSXSXSXyXyXyXbXGXLXkXGXGXGXiXvXLXLXGXzXfXDXSXuXSXDXhXgXPXSXxXfXSXDX",
"zXpXSXSXDXUXSXpXyXpXdXGXGXfXhXpXSXgXuXDXSXSXpXSXSXfXDXSXSXDXSXSXDXhXfXhXyXjXdXdXLXLXiXiXvXmXvXLXGXfXSXpXSXSXjXhXhXgXjXDXSXSXSXDX",
"SXhXSXSXDXhXPXDXfXyXDXGXGXdXhXgXSXSXDXSXpXfXhXfXjXSXSXDXDXDXSXDXSXpXSXSXhXBXbXdXLXLXiXiXiXvXLXLXGXZXSXyXSXSXSXUXSXfXCXSXDXSXDXDX",
"SXSXDXDXDXpXSXDXfXyXDXdXiXGXSXhXgXDXDXSXpXpXhXSXSXDXSXDXDXpXSXDXhXSXgXpXpXyXpXdXLXGXdXSXgXdXdXiXGXdXZXSXyXSXSXpXDXDXDXDXDXSXSXSX",
"fXDXhXDXDXDXgXFXjXSXDXdXGXdXSXjXjXDXSXgXpXlXSXSXSXfXgXSXDXpXpXDXlXgXlXDXfXjXpXdXiXdXSXIXfXSXSXdXGXdXdXZXDXgXSXDXSXSXSXDXDXSXSXDX",
"gXSXjXSXDXDXSXSXjXSXSXGXiXGXDXyXDXSXSXpXSXgXjXMXfXgXSXSXSXSXSXpXDXlXpXhXSXjXyXdXdXdXDXSXIXuXUXpXdXGXGXcXZXgXjXSXDXSXSXDXSXDXSXSX",
"zXSXhXuXhXpXSXDXDXSXbXiXLXiXDXhXhXDXlXSXfXfXjXpXSXSXDXPXSXUXDXhXSXpXhXpXPXpXdXdXdXDXSXSXSXxXSXSXjXyXdXGXGXcXjXjXhXSXfXSXpXSXzXDX",
"DXSXpXUXhXgXDXFXDXDXbXiXLXiXDXjXhXSXgXjXfXSXyXhXSXSXCXSXDXhXDXSXSXDXgXPXjXpXdXdXfXgXDXDXDXSXDXDXfXjXyXfXdXiXcXSXjXSXpXDXhXDXDXDX",
"gXSXSXhXSXDXDXgXSXSXjXbXGXiXGXhXgXfXSXSXfXSXSXSXSXpXSXDXSXSXSXjXDXgXfXjXhXGXdXdXSXSXSXSXDXSXDXSXjXfXSXyXyXGXiXcXSXfXhXDXDXDXSXxX",
"hXpXSXhXfXSXSXDXDXSXSXDXSXbXGXGXfXjXSXSXSXSXUXSXhXfXuXSXSXpXSXjXjXfXjXhXGXdXdXgXSXfXDXSXDXSXSXDXDXDXjXyXfXyXGXLXcXSXfXgXSXSXDXSX",
"pXSXpXSXjXjXDXSXCXSXSXjXfXDXGXiXGXjXDXpXfXSXSXSXSXDXSXDXSXfXjXhXjXPXdXGXdXdXpXjXSXgXfXSXDXSXSXpXuXDXgXDXyXfXyXGXdXgXjXyXgXSXDXDX",
"SXDXSXfXfXDXDXSXSXDXgXfXjXSXbXiXLXjXjXlXDXSXSXgXhXgXSXPXgXhXjXhXdXGXiXdXdXDXhXSXSXSXfXSXDXSXSXuXDXCXSXSXSXyXPXdXiXdXDXhXjXSXSXDX",
"MXSXfXSXfXPXDXDXDXDXgXDXSXfXxXdXiXdXfXhXfXSXfXhXDXzXPXPXPXjXdXGXGXdXdXcXSXhXSXSXuXDXDXDXDXfXDXfXDXSXuXDXSXyXfXyXdXiXGXSXjXfXSXSX",
"UXSXfXUXuXSXDXDXDXSXSXgXjXSXSXbXiXiXGXjXPXVXjXjXSXgXhXyXpXdXGXGXGXdXSXlXgXfXUXjXyXDXDXfXDXDXSXDXfXSXDXSXDXDXfXSXdXdXGXdXzXfXfXDX",
"SXDXjXhXDXDXDXSXDXSXSXSXjXyXSXbXiXLXLXGXhXVXPXPXPXyXyXjXdXGXdXdXSXSXgXSXgXjXSXjXSXSXSXpXSXUXDXSXgXfXSXSXDXSXgXlXjXdXiXGXdXSXPXgX",
"DXSXSXSXgXSXDXSXgXgXhXfXfXfXhXdXiXkXkXGXdXhXyXPXyXyXfXGXiXGXgXpXSXDXDXfXgXPXfXfXSXSXDXDXDXDXDXDXSXDXDXSXUXjXSXgXSXjXdXGXiXdXpXyX",
"jXDXSXfXDXjXhXjXfXhXfXgXjXgXdXiXkXmXkXiXiXiXdXfXyXhXGXLXkXLXDXgXhXDXSXPXSXpXSXjXSXSXDXhXuXDXSXDXSXDXDXSXSXUXSXSXyXfXdXiXiXdXpXgX",
"fXhXfXjXjXyXjXfXhXjXdXiXLXLXGXiXiXkXiXiXLXLXiXLXLXLXLXkXo kXdXhXgXyXjXfXhXjXDXSXfXDXSXDXSXDXDXSXDXSXDXDXUXhXDXDXpXjXSXiXiXGXdXDX",
"jXyXjXjXjXgXjXdXGXdXiXiXiXiXdXfXSXfXyXhXnXfXhXyXpXdXiXiXkXLXdXdXhXDXhXhXyXjXMXgXSXDXpXpXDXSXgXDXSXlXDXDXDXDXhXjXSXDXcXGXLXGXGXdX",
"DXhXjXSXGXGXdXGXGXdXjXGXGXGXhXjXjXjXSXfXhXSXyXfXhXyXjXfXdXkXkXiXGXGXdXhXSXhXhXyXhXSXfXpXjXDXSXDXSXSXDXhXhXlXSXSXSXcXdXdXiXiXLXGX",
"GXGXGXGXGXdXdXgXfXSXdXdXiXdXhXDXSXgXSXDXSXSXSXgXfXSXtXyXjXGXkXkXLXiXGXGXGXdXDXfXfXhXPXSXhXDXSXDXDXSXuXSXDXhXSXDXcXdXdXdXGXLXkXGX",
"GXGXGXdXdXDXSXyXhXyXSXdXiXdXDXSXSXSXFXDXPXhXgXSXSXSXSXyXyXGXkXiXtXSXfXGXGXiXGXdXSXhXjXhXhXDXSXSXhXgXhXgXjXFXDXdXGXdXfXhXdXdXLXGX",
"GXdXdXSXjXlXfXSXfXjXFXdXiXyXDXDXSXzXSXSXgXSXgXfXjXDXjXlXjXLXiXyXpXMXyXBXtXdXdXGXdXgXfXyXhXjXgXjXhXgXhXDXDXdXdXdXDXSXfXSXSXdXGXdX",
"dXhXhXtXhXjXpXDXSXyXpXGXdXgXSXgXDXDXfXDXPXfXjXfXSXSXfXjXGXLXnXpXSXSXfXfXnXyXfXdXGXdXSXjXfXfXgXjXPXDXDXdXGXdXdXSXfXfXpXfXpXdXGXGX",
"SXSXfXlXgXfXDXSXSXpXdXiXdXSXDXxXDXDXpXjXSXSXfXpXfXgXSXGXLXiXMXSXSXSXSXfXSXBXNXyXyXGXGXdXpXlXSXcXdXdXGXGXdXfXSXfXjXSXgXfXdXdXGXdX",
"SXgXgXSXDXSXDXSXSXDXdXiXfXfXSXxXSXSXDXfXhXpXSXSXhXDXdXLXiXfXSXSXDXDXjXPXhXhXyXBXfXhXiXLXiXLXLXLXdXdXSXhXDXSXfXpXSXpXfXZXGXGXlXSX",
"gXSXgXSXDXSXSXSXDXSXGXdXhXDXDXDXSXgXgXhXpXyXSXSXpXDXiXiXfXyXDXuXhXjXhXpXfXhXfXpXfXfXSXGXLXLXLXdXjXfXyXjXjXfXDXhXfXgXZXGXGXlXDXDX",
"DXSXSXfXxXIXxXDXuXdXiXfXhXUXDXjXDXfXpXgXfXpXSXDXpXfXiXGXyXSXDXDXDXSXhXpXSXSXlXpXSXjXhXpXGXLXdXDXSXSXhXSXSXpXhXDXZXiXGXdXDXyXjXjX",
"SXfXpXSXSXxXIXgXSXGXGXgXSXDXDXSXuXDXSXSXpXSXgXlXSXGXiXhXpXDXDXgXSXDXDXhXhXjXSXhXgXSXjXyXpXGXGXZXuXSXDXfXPXgXZXiXiXGXDXSXSXzXjXgX",
"hXDXpXSXDXuXSXpXSXiXaXSXDXSXhXDXpXSXDXSXSXpXhXhXjXiXdXSXDXSXDXDXDXSXSXhXSXpXSXgXSXSXSXyXjXPXdXGXZXpXgXhXZXdXiXiXdXgXyXSXjXhXSXDX",
"SXDXpXgXSXxXgXSXdXiXjXSXSXSXSXSXSXSXUXSXgXSXhXgXGXiXfXDXpXDXpXuXDXhXDXDXgXDXDXSXDXSXhXpXyXSXfXiXLXZXSXZXiXLXLXdXDXyXDXSXSXgXgXjX",
"DXSXSXgXSXgXjXSXiXGXjXDXSXCXSXSXSXDXPXSXlXhXDXpXiXdXgXSXDXuXDXpXSXpXgXgXSXSXSXSXSXDXhXpXSXjXSXdXiXLXLXLXLXLXdXDXhXgXPXSXDXSXxXDX",
"jXSXSXDXfXhXPXdXiXdXDXSXSXCXSXDXSXDXSXSXSXhXhXdXiXSXgXSXSXSXDXSXSXSXlXpXSXDXSXhXUXfXSXSXDXpXfXdXGXGXiXLXLXiXdXgXgXfXgXgXhXDXSXpX",
"hXfXMXPXjXyXDXiXGXPXSXDXDXSXgXSXDXSXDXDXgXlXdXGXGXgXfXDXpXSXpXDXDXSXDXpXDXlXSXDXfXpXlXSXDXlXSXdXGXiXLXLXGXGXGXdXUXgXDXjXgXgXPXPX",
"SXSXuXSXuXDXiXGXGXPXDXlXxXDXSXhXDXSXDXSXhXjXdXGXdXdXgXPXpXpXfXhXfXfXjXhXhXhXfXhXpXfXjXPXfXjXdXGXiXdXdXDXSXSXdXGXGXdXdXDXDXUXSXpX",
"iXiXGXiXiXiXiXLXGXdXfXgXpXpXgXSXSXDXSXDXdXdXGXLXGXdXdXDXDXDXDXhXDXSXDXDXSXDXDXDXDXDXhXDXpXGXiXLXGXDXfXyXSXfXPXfXDXdXdXGXGXGXGXdX"
};
