/* XPM */
static char *_208a3f80f11468a9fcbbe11663e213aE49hNvX1KcbqHDdd[] = {
/* columns rows colors chars-per-pixel */
"64 64 256 2 ",
"   c black",
".  c blue",
"X  c green",
"o  c red",
"O  c cyan",
"+  c yellow",
"@  c magenta",
"#  c white",
"$  c #7B7B7B",
"%  c #7B7B7B",
"&  c #7B7B7B",
"*  c #7B7B7B",
"=  c #7B7B7B",
"-  c #7B7B7B",
";  c #7B7B7B",
":  c #7B7B7B",
">  c #7B7B7B",
",  c #7B7B7B",
"<  c #7B7B7B",
"1  c #7B7B7B",
"2  c #7B7B7B",
"3  c #7B7B7B",
"4  c #7B7B7B",
"5  c #7B7B7B",
"6  c #7B7B7B",
"7  c #7B7B7B",
"8  c #7B7B7B",
"9  c #7B7B7B",
"0  c #7B7B7B",
"q  c #7B7B7B",
"w  c #7B7B7B",
"e  c #7B7B7B",
"r  c #7B7B7B",
"t  c #7B7B7B",
"y  c #7B7B7B",
"u  c #7B7B7B",
"i  c #7B7B7B",
"p  c #7B7B7B",
"a  c #7B7B7B",
"s  c #7B7B7B",
"d  c #7B7B7B",
"f  c #7B7B7B",
"g  c #7B7B7B",
"h  c #7B7B7B",
"j  c #7B7B7B",
"k  c #7B7B7B",
"l  c #7B7B7B",
"z  c #7B7B7B",
"x  c #7B7B7B",
"c  c #7B7B7B",
"v  c #7B7B7B",
"b  c #7B7B7B",
"n  c #7B7B7B",
"m  c #7B7B7B",
"M  c #7B7B7B",
"N  c #7B7B7B",
"B  c #7B7B7B",
"V  c #7B7B7B",
"C  c #7B7B7B",
"Z  c #7B7B7B",
"A  c #7B7B7B",
"S  c #7B7B7B",
"D  c #7B7B7B",
"F  c #7B7B7B",
"G  c #7B7B7B",
"H  c #7B7B7B",
"J  c #7B7B7B",
"K  c #7B7B7B",
"L  c #7B7B7B",
"P  c #7B7B7B",
"I  c #7B7B7B",
"U  c #7B7B7B",
"Y  c #7B7B7B",
"T  c #7B7B7B",
"R  c #7B7B7B",
"E  c #7B7B7B",
"W  c #7B7B7B",
"Q  c #7B7B7B",
"!  c #7B7B7B",
"~  c #7B7B7B",
"^  c #7B7B7B",
"/  c #7B7B7B",
"(  c #7B7B7B",
")  c #7B7B7B",
"_  c #7B7B7B",
"`  c #7B7B7B",
"'  c #7B7B7B",
"]  c #7B7B7B",
"[  c #7B7B7B",
"{  c #7B7B7B",
"}  c #7B7B7B",
"|  c #7B7B7B",
" . c #7B7B7B",
".. c #7B7B7B",
"X. c #7B7B7B",
"o. c #7B7B7B",
"O. c #7B7B7B",
"+. c #7B7B7B",
"@. c #7B7B7B",
"#. c #7B7B7B",
"$. c #7B7B7B",
"%. c #7B7B7B",
"&. c #7B7B7B",
"*. c #7B7B7B",
"=. c #7B7B7B",
"-. c #7B7B7B",
";. c #7B7B7B",
":. c #7B7B7B",
">. c #7B7B7B",
",. c #7B7B7B",
"<. c #7B7B7B",
"1. c #7B7B7B",
"2. c #7B7B7B",
"3. c #7B7B7B",
"4. c #7B7B7B",
"5. c #7B7B7B",
"6. c #7B7B7B",
"7. c #7B7B7B",
"8. c #7B7B7B",
"9. c #7B7B7B",
"0. c #7B7B7B",
"q. c #7B7B7B",
"w. c #7B7B7B",
"e. c #7B7B7B",
"r. c #7B7B7B",
"t. c #7B7B7B",
"y. c #7B7B7B",
"u. c #7B7B7B",
"i. c #7B7B7B",
"p. c #7B7B7B",
"a. c #7B7B7B",
"s. c #7B7B7B",
"d. c #7B7B7B",
"f. c #7B7B7B",
"g. c #7B7B7B",
"h. c #7B7B7B",
"j. c #7B7B7B",
"k. c #7B7B7B",
"l. c #7B7B7B",
"z. c #7B7B7B",
"x. c #7B7B7B",
"c. c #7B7B7B",
"v. c #7B7B7B",
"b. c #7B7B7B",
"n. c #7B7B7B",
"m. c #7B7B7B",
"M. c #7B7B7B",
"N. c #7B7B7B",
"B. c #7B7B7B",
"V. c #7B7B7B",
"C. c #7B7B7B",
"Z. c #7B7B7B",
"A. c #7B7B7B",
"S. c #7B7B7B",
"D. c #7B7B7B",
"F. c #7B7B7B",
"G. c #7B7B7B",
"H. c #7B7B7B",
"J. c #7B7B7B",
"K. c #7B7B7B",
"L. c #7B7B7B",
"P. c #7B7B7B",
"I. c #7B7B7B",
"U. c #7B7B7B",
"Y. c #7B7B7B",
"T. c #7B7B7B",
"R. c #7B7B7B",
"E. c #7B7B7B",
"W. c #7B7B7B",
"Q. c #7B7B7B",
"!. c #7B7B7B",
"~. c #7B7B7B",
"^. c #7B7B7B",
"/. c #7B7B7B",
"(. c #7B7B7B",
"). c #7B7B7B",
"_. c #7B7B7B",
"`. c #7B7B7B",
"'. c #7B7B7B",
"]. c #7B7B7B",
"[. c #7B7B7B",
"{. c #7B7B7B",
"}. c #7B7B7B",
"|. c #7B7B7B",
" X c #7B7B7B",
".X c #7B7B7B",
"XX c #7B7B7B",
"oX c #7B7B7B",
"OX c #7B7B7B",
"+X c #7B7B7B",
"@X c #7B7B7B",
"#X c #7B7B7B",
"$X c #7B7B7B",
"%X c #7B7B7B",
"&X c #7B7B7B",
"*X c #7B7B7B",
"=X c #7B7B7B",
"-X c #7B7B7B",
";X c #7B7B7B",
":X c #7B7B7B",
">X c #7B7B7B",
",X c #7B7B7B",
"<X c #7B7B7B",
"1X c #7B7B7B",
"2X c #7B7B7B",
"3X c #7B7B7B",
"4X c #7B7B7B",
"5X c #7B7B7B",
"6X c #7B7B7B",
"7X c #7B7B7B",
"8X c #7B7B7B",
"9X c #7B7B7B",
"0X c #7B7B7B",
"qX c #7B7B7B",
"wX c #7B7B7B",
"eX c #7B7B7B",
"rX c #7B7B7B",
"tX c #7B7B7B",
"yX c #7B7B7B",
"uX c #7B7B7B",
"iX c #7B7B7B",
"pX c #7B7B7B",
"aX c #7B7B7B",
"sX c #7B7B7B",
"dX c #7B7B7B",
"fX c #101800",
"gX c #392910",
"hX c #202020",
"jX c #293118",
"kX c #312010",
"lX c #394129",
"zX c #313131",
"xX c #291808",
"cX c #292008",
"vX c #412918",
"bX c gray16",
"nX c #313920",
"mX c #414A31",
"MX c #4A3118",
"NX c #5A4129",
"BX c #4A3929",
"VX c #413120",
"CX c #202908",
"ZX c #392918",
"AX c #414141",
"SX c #524131",
"DX c #5A4A31",
"FX c #6A4120",
"GX c #4A3920",
"HX c #413118",
"JX c #181818",
"KX c #181008",
"LX c gray3",
"PX c #625239",
"IX c gray32",
"UX c #525239",
/* pixels */
"zXvXzXzXvX                  kXzXKXkXVX                                                          zXgXkXzXzXkXgXBXvXzXzXgXzXzXkXzX",
"zXgXzXzXkXzX                                                      kXvXSXBXvX                    zXkXzXzXkXgXzXzXgXzXzXzXkXvXzXkX",
"zXzXvXgXzXzXmX            kXgXSXSXSXgXBX                    kXzXvXSXzXVXvXzXVXSX            gXzXkXzXzXkXzXzXCXzXzXzXkXzXBXgXzXkX",
"zXzXBXgXzXzXzXzX        kXmXzXzXzXvXgXVXvXVXVX          kXzXBXSXgXBXgXkXgXzXzXSXBX          kXkXzXzXzXzXzXnXkXzXkXzXkXVXgXzXzXJX",
"kXzXgXBXvXkXkXBX      BXkXkXVXkXzXgXSXBXvXgXkX        kXzXzXkXzXzXkXzXkXzXkXkXvXzXkX      kXzXkXvXkXzXkXzXkXzXgXzXkXzXzXkXzXzXkX",
"gXzXBXkXgXgXgXzXzX    kXgXzXvXBXNXvXVXgXkX        kXgXzXBXkXkXzXkXzXzXgXzXgXzXzXgXvX      kXzXkXnXzXkXgXkXzXgXVXBXgXzXkXkXzXzXgX",
"zXzXzXzXkXmXVXkXBX    vXgXgXVXvXkXkX          kXnXzXBXkXzXkXkXkXzXgXzXzXgXVXgXzXgXBX      VXvXzXkXVXbXzXkXkXzXgXvXVXkXzXkXzXkXgX",
"zXzXzXkXgXzXgXgXzXzX    kXkXBX            kXzXkXzXgXVXkXkXzXVXkXzXzXkXVXgXzXgXgXzXkX      zXgXzXKXkXbXkXVXkXlXVXkXvXkXzXzXzXzXVX",
"zXkXzXkXgXBXgXHXvXBX                BXkXkXzXBXgXkXHXgXzXkXzXkXkXzXkXzXgXmXvXgXHXgXkX      kXzXkXkXzXbXkXzXgXzXvXVXgXVXkXkXzXzXkX",
"gXVXkXzXgXzXVXVXkXSXzX          kXzXzXgXzXkXvXmXzXkXgXzXgXkXzXkXkXzXkXVXVXzXzXkXkX        gXkXkXzXkXkXzXlXkXzXmXkXvXkXgXzXzXnXVX",
"kXzXzXkXzXgXgXgXkXBXgX        kXkXVXSXzXzXmXgXzXgXkXkXHXgXzXkXzXkXgXzXvXBXvXgXkX          gXkXkXkXzXkXkXkXzXzXzXzXkXGXvXzXzXgXgX",
"vXzXkXkXzXkXgXBXzXzXBXgX      kXkXzXkXgXzXkXBXgXgXgXkXVXkXzXkXzXgXgXgXVXkXkX              zXvXKXzXkXzXkXgXkXzXzXkXVXvXkXgXKXgXzX",
"gXkXnXzXgXkXVXgXzXzXzXzXzX        kXkXBXzXlXHXmXkXkXVXgXzXkXVXVXvXgXkX                    zXgXBXVXzXkXzXzXkXGXzXzXzXzXkXkXkXlXkX",
"BXgXzXkXzXvXVXkXzXkXkXgXDXzX          kXgXVXgXvXkXzXkXvXVXgXBXkXkX          kXGXBXBXvXgX    VXkXVXvXkXgXkXzXzXHXgXVXzXkXzXnXkXzX",
"gXzXkXzXzXzXkXVXzXkXgXgXBXzXkX          kXkXVXvXVXGXBXVXBXBXgXkX        kXzXHXHXSXzXSXSXgX      VXgXVXkXnXkXzXgXzXgXzXzXkXVXkXkX",
"zXkXkXVXzXgXkXgXzXkXkXBXvXVXgX              kXgXVXgXBXVXkXkX        kXvXBXBXzXHXzXzXSXSXSXgX      gXBXBXkXzXkXzXgXVXgXzXkXnXBXkX",
"BXgXzXkXvXHXkXgXgXBXvXVXBXBX          kX            kXkX          kXBXvXzXzXgXBXzXgXzXHXzXSXgX      kXHXSXSXGXVXkXkXgXzXkXzXmXzX",
"gXzXzXkXzXgXkXVXgXSXBXkXVXkX        gXkXkXVXvX                kXBXvXmXBXgXzXkXgXlXzXnXzXzXzXSX        kXkXHXSXvXVXzXnXkXkXHXzXkX",
"zXgXkXzXvXVXvXBXBXGXgXkX            vXkXgXzXgXgX              zXkXzXkXzXgXvXzXvXzXzXzXgXVXzXvXzX          kXvXSXGXVXVXkXgXgXzXzX",
"kXBXgXgXvXSXHXkXgX                                            zXzXkXgXVXvXBXzXzXkXBXkXgXvXkXgXvXVX            kXSXBXVXkXgXzXzXVX",
"zXnXvXBXGXkXkX            zXBXkXkXgXBXvXvXBXBXvXBXvXfX          zXzXzXHXzXzXzXzXzXgXgXzXzXkXzXkXkX              kXkXvXVXkXKXvXkX",
"VXHXBXgXgX              zXBXzXzXvXBXzXVXSXSXVXSXVXBXSXgXfX          gXBXzXzXgXBXzXgXzXgXzXkXkXJXkX    gXkX          kXGXBXvXkXkX",
"gXVXgX                zXzXzXzXzXzXzXVXvXBXgXvXBXvXSXSXvXBXfX          vXzXvXBXgXzXkXkXkXkXkXkXkX    gXHXBXgXkX        kXvXgXgXVX",
"kX        kXkX      kXzXVXkXzXkXkXbXzXzXzXvXBXBXvXzXVXSXPXSXHX          zXzXkXzXVXvXmXkXkXgXkX    kXkXBXBXSXVXzXkX        kXvXgX",
"      kXzXkXzXkX    fXbXzXHXkXzXKXgXzXkXzXVXvXvXHXgXgXBXSXBXSXSXHX        kXzXvXgXVXkXBXgXkX      zXkXzXzXgXvXUXgXkX            ",
"zXgXHXzXBXSXzXzX      kXkXzXzXkXkXVXzXkXzXvXvXSXzXHXVXzXzXvXVXSXSXHX        zXzXBXSXVXkXkX        vXBXzXkXzXzXBXVXSXBXkXkXkXkXkX",
"gXBXBXVXSXzXzXDXkX    fXbXzXkXzXzXBXgXBXkXBXBXgXVXgXzXkXkXzXkXvXBXSXHX        BXzXvXkXkX          zXzXkXkXgXkXBXzXzXvXBXSXvXzXvX",
"kXVXzXgXvXzXgXSXBX      zXVXnXzXzXzXkXzXzXzXzXvXzXgXvXvXkXkXkXBXgXSXBXHX        zXkXkX            gXSXzXzXzXkXzXvXzXgXzXvXBXBXzX",
"kXzXkXVXgXkXgXBXBXkX    fXzXBXgXzXkXzXkXzXkXBXvXvXBXvXzXkXzXkXzXzXzXSXSXHXkX                      kXBXkXzXbXzXkXVXgXBXzXKXBXzXkX",
"kXgXzXzXkXnXzXgXSXgX      BXHXgXzXgXbXkXzXzXgXzXzXBXkXzXzXkXzXzXkXHXBXVXSXvX                      BXzXgXzXzXvXHXHXgXgXkXzXzXzXkX",
"zXVXzXzXkXVXBXkXBXSXkX    fXVXgXzXzXkXzXgXBXVXBXvXzXzXkXkXkXzXkXzXgXzXzXVXAXgX                    kXzXSXzXzXzXnXzXzXJXzXkXzXkXkX",
"zXzXkXkXkXgXzXkXBXSXkX      zXVXgXkXkXzXgXgXVXzXzXkXzXkXkXgXzXkXVXzXgXgXgXSXgX                      kXzXSXzXzXgXkXkXkXkXkXzXzXzX",
"BXkXVXkXkXkXgXlXvXzXkX      zXvXvXkXzXgXgXHXzXzXzXBXgXzXkXgXgXkXmXgXmXkXzXvXgX        kXkXkXkX        kXkXgXzXkXzXzXzXkXkXzXzXkX",
"gXzXvXzXkXkXzXzXvXzXkX      kXSXkXzXzXgXzXgXvXNXBXgXzXzXzXzXzXgXkXmXgXVXzXvXkX      kXzXCXbXnXkX          kXvXzXkXzXzXkXzXkXzXzX",
"kXzXVXbXHXgXzXkXkXkX        kXVXVXkXmXzXBXBXvXgXzXzXkXBXzXnXkXVXzXgXVXgXVXgX      kXzXzXzXKXzXzXvXkX        kXvXVXzXBXzXgXzXkXkX",
"kXzXgXnXVXgXkXlXkXkX        kXvXVXzXgXvXBXzXBXHXzXzXJXzXkXVXkXzXzXkXgXBXvXgX      gXkXkXkXzXkXkXBXvXkX        kXvXzXgXkXVXkXkXkX",
"gXzXzXVXzXkXkXgXzXzXkX        VXgXBXzXzXBXzXzXzXzXgXzXkXzXzXzXvXkXgXBXvXHX      zXzXzXzXkXzXkXzXvXBXzXkX        kXBXVXkXkXkXzXKX",
"VXgXzXHXBXzXzXkXkXzXzXkXkX    fXBXvXzXzXzXzXnXzXHXBXbXzXzXgXzXvXvXBXvXCX      gXzXBXkXzXkXzXzXkXkXkXvXSXkX        kXBXgXzXzXkXzX",
"gXzXgXzXvXvXkXzXJXzXzXvXBXkX    fXvXkXgXBXzXzXzXzXkXzXkXzXBXvXVXvXGXCX      gXvXzXgXBXzXkXzXzXgXbXkXgXkXmXkX      kXvXSXgXzXkXkX",
"zXkXzXBXBXkXkXzXzXkXgXBXvXzX      vXvXmXkXzXzXgXVXgXzXGXgXVXvXVXCX        kXVXzXzXzXBXzXkXzXzXbXkXJXzXzXzXSXkX      kXVXvXzXzXkX",
"NXzXBXzXBXBXkXkXkXkXgXkXzXBXKX      BXVXBXzXBXHXkXkXBXGXBXvXCX          zXVXzXzXbXkXkXkXkXBXkXzXkXzXbXkXzXNXBXkX      kXvXBXzXzX",
"nXzXBXnXbXzXkXkXkXzXzXgXvXzXzXkX      vXGXFXvXvXzXgXVXSXgXfX        zXmXgXBXnXvXmXkXkXBXkXkXzXkXBXzXkXzXkXkXBXzX        kXBXBXkX",
"zXkXvXVXkXkXkXzXkXzXzXzXvXSXzXkX        VXFXBXBXGXBXSXvXfX      zXzXgXzXgXvXzXvXzXzXzXgXzXnXkXzXgXBXzXzXkXzXgXmXkX        kXGXgX",
"kXzXzXzXgXzXkXzXgXgXVXBXBXBXVXkX          VXSXBXSXSXBXfX    gXgXzXkXkXzXgXGXBXBXzXzXkXkXkXkXkXkXzXkXkXzXnXvXzXgXzX          gXSX",
"vXkXzXBXkXvXVXvXBXVXBXgXvXgX                fXBXSXVX        kXgXVXkXzXBXzXgXzXvXzXzXkXVXbXkXzXkXzXkXkXzXzXnXzXzXBXkX        kXgX",
"BXHXBXvXvXBXvXBXVXvX                                          VXgXSXvXBXVXvXkXzXBXkXzXkXzXkXkXzXkXzXkXkXnXVXkXkXgXkX          kX",
"vXSXvXvXvXgXvX                kXzXBXSXVXPXBXVXvXgXfX            VXkXVXVXSXvXBXgXzXkXgXgXkXzXgXkXzXmXkXkXkXkXHXvXzXkX            ",
"kXHXvXzX                    kXvXvXvXzXBXVXzXSXBXVXSXvXKX              VXzXVXHXSXVXzXBXgXvXkXzXkXzXzXkXVXnXzXzXzXzX              ",
"              gXBXzXfX    fXVXkXzXgXzXkXzXzXzXgXzXzXUXvXKX                  kXBXBXVXBXzXVXkXzXkXkXzXbXzXkXVXzXkX                ",
"          kXzXSXVXSXzX    fXkXzXzXzXlXkXHXHXgXzXzXzXzXSXvX    KXkXzXBXkXJX      zXVXvXHXVXkXzXzXVXgXHXgXvXlXkX    kXkXVX        ",
"      zXvXmXBXzXBXvXkX    SXkXkXzXkXzXzXgXzXgXBXvXkXvXSXvX  KXSXgXNXSXAXUXkX      gXBXSXVXvXgXvXHXgXVXkXkX      kXzXBXzXzX      ",
"  VXHXUXVXvXgXkXzXSXgX  kXgXzXgXkXkXzXkXGXBXvXBXzXzXBXvXkX  HXgXzXzXBXBXDXSXBXKX    zXvXBXBXgXvXBXkXkX      kXkXBXBXgXBXgX      ",
"zXzXBXmXgXBXkXzXzXgX    fXzXkXKXkXkXgXHXzXzXBXgXBXgXzXkX  HXNXzXzXzXzXBXzXAXIXSXkX      gXmXzX          kXBXzXBXvXzXgXBX        ",
"zXgXgXzXkXzXkXzXzXkX    BXBXzXKXzXzXkXBXVXgXzXzXVXkXkX  KXBXzXzXkXkXvXGXHXVXSXAXBXkX                kXVXkXzXBXgXzXgXBX    kXkXzX",
"gXzXgXzXkXzXzXzXkXkX  fXVXkXkXkXzXgXgXVXgXSXzXzXgXkX    HXSXkXbXVXvXVXgXBXVXBXgXBXBXkX          vXBXSXvXvXBXkXVXBXgX    kXzXkXkX",
"kXzXzXBXKXCXKXkXbX    BXHXnXkXvXkXBXgXgXBXgXzXkXgXkX  KXSXzXkXkXkXzXVXgXzXzXSXgXzXvXVXgX      kXzXzXVXzXzXgXVXkX      kXkXBXvXvX",
"zXzXgXzXzXKXCXgXkX    gXzXkXkXzXbXkXzXzXgXzXgXmXzX    VXgXkXkXgXzXkXkXHXVXvXzXVXgXzXvXSXgX    kXbXzXkXBXBXgX        kXzXzXkXgXgX",
"nXkXgXzXkXbXzXgXkX    zXkXzXVXkXgXzXkXzXzXgXVXVXvXLX  zXkXzXkXkXkXzXzXVXzXgXzXgXzXzXzXSXvXBX    kXgXgXVXnX        gXSXzXvXVXzXkX",
"zXkXgXgXzXKXgXkX    vXzXzXzXzXzXzXzXnXzXgXzXVXgX    KXkXgXkXgXbXkXVXkXkXgXkXkXzXkXzXVXgXSXzXBX                  kXBXkXzXzXgXgXvX",
"kXzXzXgXzXgXvXkX    vXkXzXJXzXzXzXkXBXzXmXVXkXgX    gXzXkXbXkXgXzXgXgXgXzXzXzXzXzXkXVXgXzXvXzX                kXVXgXBXzXkXzXKXkX",
"vXzXzXkXBXHXBX      kXzXzXJXzXkXzXkXzXzXzXVXgX    KXgXzXzXzXkXzXzXzXmXgXzXkXzXVXnXBXzXzXkXgXBX                gXgXBXgXgXVXkXzXgX",
"VXBXNXGXvXSXkX    GXzXkXkXzXgXzXkXzXkXkXgXgX      gXBXkXgXzXgXkXkXzXkXgXkXmXzXkXBXgXmXzXkXmXzX                  nXgXkXvXgXgXGXBX",
"zXzXbXzXkXkX      GXkXmXKXkXzXVXkXzXkXzXgX          gXGXgXgXBXVXBXBXvXVXVXVXBXVXgXBXvXBXVXvX          kXzXzX          kXkXnXzXgX",
"                    BXgXgXgXgXzXzXkXzXkX              kXkXkXkXVXkXzXkXkXzXkXkXkXkXkXHXkXgX        kXBXSXzXBXBXzXkX              "
};
