/* XPM */
static char *_caa7105aaa3416ea058849a29a00775tujZAHsvzp2fJTYB[] = {
/* columns rows colors chars-per-pixel */
"64 64 256 2 ",
"   c black",
".  c blue",
"X  c green",
"o  c red",
"O  c cyan",
"+  c yellow",
"@  c magenta",
"#  c white",
"$  c #7B7B7B",
"%  c #7B7B7B",
"&  c #7B7B7B",
"*  c #7B7B7B",
"=  c #7B7B7B",
"-  c #7B7B7B",
";  c #7B7B7B",
":  c #7B7B7B",
">  c #7B7B7B",
",  c #7B7B7B",
"<  c #7B7B7B",
"1  c #7B7B7B",
"2  c #7B7B7B",
"3  c #7B7B7B",
"4  c #7B7B7B",
"5  c #7B7B7B",
"6  c #7B7B7B",
"7  c #7B7B7B",
"8  c #7B7B7B",
"9  c #7B7B7B",
"0  c #7B7B7B",
"q  c #7B7B7B",
"w  c #7B7B7B",
"e  c #7B7B7B",
"r  c #7B7B7B",
"t  c #7B7B7B",
"y  c #7B7B7B",
"u  c #7B7B7B",
"i  c #7B7B7B",
"p  c #7B7B7B",
"a  c #7B7B7B",
"s  c #7B7B7B",
"d  c #7B7B7B",
"f  c #7B7B7B",
"g  c #7B7B7B",
"h  c #7B7B7B",
"j  c #7B7B7B",
"k  c #7B7B7B",
"l  c #7B7B7B",
"z  c #7B7B7B",
"x  c #7B7B7B",
"c  c #7B7B7B",
"v  c #7B7B7B",
"b  c #7B7B7B",
"n  c #7B7B7B",
"m  c #7B7B7B",
"M  c #7B7B7B",
"N  c #7B7B7B",
"B  c #7B7B7B",
"V  c #7B7B7B",
"C  c #7B7B7B",
"Z  c #7B7B7B",
"A  c #7B7B7B",
"S  c #7B7B7B",
"D  c #7B7B7B",
"F  c #7B7B7B",
"G  c #7B7B7B",
"H  c #7B7B7B",
"J  c #7B7B7B",
"K  c #7B7B7B",
"L  c #7B7B7B",
"P  c #7B7B7B",
"I  c #7B7B7B",
"U  c #7B7B7B",
"Y  c #7B7B7B",
"T  c #7B7B7B",
"R  c #7B7B7B",
"E  c #7B7B7B",
"W  c #7B7B7B",
"Q  c #7B7B7B",
"!  c #7B7B7B",
"~  c #7B7B7B",
"^  c #7B7B7B",
"/  c #7B7B7B",
"(  c #7B7B7B",
")  c #7B7B7B",
"_  c #7B7B7B",
"`  c #7B7B7B",
"'  c #7B7B7B",
"]  c #7B7B7B",
"[  c #7B7B7B",
"{  c #7B7B7B",
"}  c #7B7B7B",
"|  c #7B7B7B",
" . c #7B7B7B",
".. c #7B7B7B",
"X. c #7B7B7B",
"o. c #7B7B7B",
"O. c #7B7B7B",
"+. c #7B7B7B",
"@. c #7B7B7B",
"#. c #7B7B7B",
"$. c #7B7B7B",
"%. c #7B7B7B",
"&. c #7B7B7B",
"*. c #7B7B7B",
"=. c #7B7B7B",
"-. c #7B7B7B",
";. c #7B7B7B",
":. c #7B7B7B",
">. c #7B7B7B",
",. c #7B7B7B",
"<. c #7B7B7B",
"1. c #7B7B7B",
"2. c #7B7B7B",
"3. c #7B7B7B",
"4. c #7B7B7B",
"5. c #7B7B7B",
"6. c #7B7B7B",
"7. c #7B7B7B",
"8. c #7B7B7B",
"9. c #7B7B7B",
"0. c #7B7B7B",
"q. c #7B7B7B",
"w. c #7B7B7B",
"e. c #7B7B7B",
"r. c #7B7B7B",
"t. c #7B7B7B",
"y. c #7B7B7B",
"u. c #7B7B7B",
"i. c #7B7B7B",
"p. c #7B7B7B",
"a. c #7B7B7B",
"s. c #7B7B7B",
"d. c #7B7B7B",
"f. c #7B7B7B",
"g. c #7B7B7B",
"h. c #7B7B7B",
"j. c #7B7B7B",
"k. c #7B7B7B",
"l. c #7B7B7B",
"z. c #7B7B7B",
"x. c #7B7B7B",
"c. c #7B7B7B",
"v. c #7B7B7B",
"b. c #7B7B7B",
"n. c #7B7B7B",
"m. c #7B7B7B",
"M. c #7B7B7B",
"N. c #7B7B7B",
"B. c #7B7B7B",
"V. c #7B7B7B",
"C. c #7B7B7B",
"Z. c #7B7B7B",
"A. c #7B7B7B",
"S. c #7B7B7B",
"D. c #7B7B7B",
"F. c #7B7B7B",
"G. c #7B7B7B",
"H. c #7B7B7B",
"J. c #7B7B7B",
"K. c #7B7B7B",
"L. c #7B7B7B",
"P. c #7B7B7B",
"I. c #7B7B7B",
"U. c #7B7B7B",
"Y. c #7B7B7B",
"T. c #7B7B7B",
"R. c #7B7B7B",
"E. c #7B7B7B",
"W. c #7B7B7B",
"Q. c #7B7B7B",
"!. c #7B7B7B",
"~. c #7B7B7B",
"^. c #7B7B7B",
"/. c #7B7B7B",
"(. c #7B7B7B",
"). c #7B7B7B",
"_. c #7B7B7B",
"`. c #7B7B7B",
"'. c #7B7B7B",
"]. c #7B7B7B",
"[. c #7B7B7B",
"{. c #7B7B7B",
"}. c #7B7B7B",
"|. c #7B7B7B",
" X c #7B7B7B",
".X c #7B7B7B",
"XX c #7B7B7B",
"oX c #7B7B7B",
"OX c #7B7B7B",
"+X c #7B7B7B",
"@X c #7B7B7B",
"#X c #7B7B7B",
"$X c #7B7B7B",
"%X c #7B7B7B",
"&X c #7B7B7B",
"*X c #7B7B7B",
"=X c #7B7B7B",
"-X c #7B7B7B",
";X c #7B7B7B",
":X c #7B7B7B",
">X c #7B7B7B",
",X c #7B7B7B",
"<X c #7B7B7B",
"1X c #7B7B7B",
"2X c #7B7B7B",
"3X c #7B7B7B",
"4X c #7B7B7B",
"5X c #7B7B7B",
"6X c #7B7B7B",
"7X c #7B7B7B",
"8X c #7B7B7B",
"9X c #7B7B7B",
"0X c #7B7B7B",
"qX c #7B7B7B",
"wX c #CD7B4A",
"eX c #312910",
"rX c #FFFFB4",
"tX c #AC947B",
"yX c #413120",
"uX c #AC7B18",
"iX c #7B5229",
"pX c #524131",
"aX c #4A3929",
"sX c #7B624A",
"dX c #6A5241",
"fX c #4A3118",
"gX c #5A4120",
"hX c #D5BD41",
"jX c #735A39",
"kX c #834100",
"lX c #5A4A31",
"zX c #C59C29",
"xX c #EEDE52",
"cX c #625231",
"vX c #312010",
"bX c #6A4120",
"nX c #523929",
"mX c #735A4A",
"MX c #947B62",
"NX c #523918",
"BX c #9C6239",
"VX c #FFFF6A",
"CX c #835231",
"ZX c #836A52",
"AX c #9C5A10",
"SX c #8B5A31",
"DX c #836A4A",
"FX c #AC6A41",
"GX c #9C8362",
"HX c #FFFF8B",
"JX c #FFFF73",
"KX c #A48B73",
"LX c #8B7352",
"PX c #9C7B6A",
"IX c #9C836A",
"UX c #A46A39",
/* pixels */
"sXsXsXsXsXuXzXhXhXhXhXzXuXAXgXyXyXyXgXAXzXhXxXxXhXzXzXzXzXhXxXxXxXxXxXxXxXxXxXxXxXxXxXxXxXxXxXzXyXgXpXpXpXlXlXdXdXpXpXlXyXpXyXnX",
"pXnXcXnXdXsXuXzXhXxXxXxXhXzXzXzXzXzXhXhXhXxXxXxXxXxXxXxXxXxXhXuXAXnXsXsXLXLXAXAXzXxXxXxXhXhXzXAXfXgXpXpXlXlXlXlXlXlXpXpXyXyXpXnX",
"pXpXdXlXpXsXcXuXzXxXxXxXuXAXcXDXDXDXcXcXAXuXzXxXxXxXxXxXhXuXpXnXsXLXgXgXsXsXLXsXAXzXxXxXhXzXgXyXgXnXpXpXlXlXpXpXpXpXyXpXpXyXlXyX",
"pXpXdXlXpXcXsXcXuXhXzXuXcXcXjXjXjXjXcXpXiXSXSXuXxXxXhXuXpXpXsXsXdXsXlXgXgXlXcXLXsXuXxXxXzXAXyXvXpXpXpXpXlXlXpXlXpXlXyXbXyXyXyXvX",
"nXpXbXlXdXlXdXsXAXzXuXbXpXyXnXnXpXiXSXSXSXiXyXuXxXhXuXgXdXdXgXpXpXgXlXgXpXcXgXsXcXAXxXxXuXyXgXyXpXnXpXnXpXlXlXlXlXpXyXpXyXyXnXyX",
"gXdXcXpXlXdXiXsXdXuXuXnXbXnXbXSXSXSXiXbXyXuXhXxXhXgXgXdXdXpXpXnXgXlXgXgXlXcXcXcXcXsXxXxXAXyXyXyXfXnXnXgXgXgXbXbXbXgXyXfXyXyXyXyX",
"gXnXdXpXpXlXgXdXsXAXuXpXbXiXiXbXnXnXuXhXxXxXhXuXlXdXdXgXpXpXgXnXfXlXgXpXcXgXcXcXcXsXhXxXAXnXnXyXyXfXnXpXgXgXgXgXbXgXyXnXnXnXnXyX",
"nXnXpXnXlXyXgXgXsXdXuXuXyXyXlXuXhXxXxXhXuXyXcXpXlXdXgXgXgXnXbXnXnXgXgXbXcXcXcXcXcXdXzXxXAXyXbXyXyXfXnXnXfXgXpXgXgXbXgXpXnXyXlXyX",
"nXnXnXpXdXlXgXgXdXsXAXzXuXhXhXxXxXhXlXyXyXyXsXlXgXgXgXgXpXnXpXgXnXgXnXlXdXbXcXlXgXlXzXhXAXyXgXfXpXpXnXpXpXgXpXbXgXgXfXfXyXyXpXfX",
"lXbXnXpXlXlXiXgXnXsXyXhXxXzXxXuXfXnXdXlXyXpXjXlXpXgXgXgXgXnXgXnXnXgXgXiXbXdXcXlXcXAXzXhXuXgXfXfXnXfXfXpXpXpXpXlXgXiXyXgXnXlXnXnX",
"fXyXnXdXyXgXgXgXyXlXdXuXxXzXuXnXcXdXdXlXpXlXlXlXlXgXgXgXgXpXgXgXnXgXgXCXCXbXbXpXAXzXxXhXzXgXyXyXyXfXnXpXpXpXpXlXpXgXgXbXpXyXyXyX",
"bXnXnXnXlXpXgXgXpXlXdXdXuXxXuXdXdXpXyXlXyXnXlXlXbXgXfXbXgXpXnXpXbXbXCXbXyXlXuXzXhXxXxXhXhXnXbXyXnXgXpXnXgXnXpXlXlXgXpXnXgXyXfXyX",
"cXfXnXyXlXlXgXgXyXyXlXsXdXuXxXAXAXdXnXbXyXyXlXlXpXpXfXbXnXnXbXCXCXbXyXuXzXhXhXhXhXhXhXhXhXgXbXCXbXfXfXpXpXnXbXlXjXlXpXyXnXfXnXyX",
"lXgXnXpXgXbXgXfXcXyXyXlXsXdXuXxXzXuXAXlXbXbXbXbXbXfXfXbXbXbXCXbXlXuXhXhXhXuXAXCXdXjXdXzXxXuXgXyXCXbXfXgXpXpXlXlXcXgXyXyXnXnXyXyX",
"gXpXpXnXpXpXpXfXyXyXyXbXsXsXpXhXxXxXzXAXyXyXbXSXBXBXSXSXSXiXbXnXuXhXuXAXAXsXcXsXsXjXjXdXLXxXzXuXgXCXbXgXpXlXnXcXcXgXnXnXyXnXyXfX",
"lXnXnXnXlXgXgXgXyXpXyXbXsXbXlXzXhXxXxXxXzXAXlXlXlXCXCXiXpXgXuXhXhXuXAXbXsXsXdXcXdXsXsXsXcXuXxXxXzXgXCXCXbXlXnXdXbXfXlXyXyXyXpXyX",
"nXgXpXyXbXgXfXgXyXbXiXSXSXbXAXuXxXxXuXgXuXxXxXxXzXuXlXnXuXzXzXuXAXlXsXsXdXcXgXiXlXlXcXsXsXcXiXhXxXzXfXgXSXSXbXgXgXgXgXnXfXyXpXnX",
"gXnXnXnXpXpXfXiXiXSXSXSXbXpXzXJXhXuXcXyXvXnXbXuXxXzXzXzXzXxXuXgXsXsXdXbXgXcXgXdXpXlXlXpXcXsXyXAXhXxXzXgXgXBXBXSXgXlXlXfXfXnXpXyX",
"pXlXnXyXpXbXSXSXSXbXbXgXAXzXJXJXxXuXjXyXiXnXiXiXuXhXxXxXxXxXAXyXnXnXyXlXbXbXlXjXlXpXlXlXnXcXsXyXAXhXxXhXuXbXbXFXBXlXgXnXyXyXpXpX",
"pXbXdXgXbXSXbXcXbXAXuXzXzXzXhXzXzXzXzXhXxXzXxXxXxXxXxXhXhXxXuXpXnXpXgXgXbXdXpXdXpXdXpXlXpXyXdXsXyXuXhXhXxXxXuXbXFXBXbXgXgXyXyXyX",
"nXpXiXSXSXbXuXzXhXhXzXzXAXcXlXlXfXlXiXdXdXdXdXdXdXdXdXuXhXxXxXuXfXnXfXgXcXjXlXdXpXgXcXpXpXyXlXpXyXuXzXzXzXhXxXuXbXiXSXgXyXyXyXyX",
"bXbXSXbXbXuXzXhXhXhXzXAXyXsXsXsXsXdXdXZXMXMXMXMXZXPXsXcXuXhXxXhXuXuXgXlXlXdXlXjXlXlXlXlXpXyXpXvXAXuXAXgXgXzXhXxXhXuXbXSXSXiXgXpX",
"bXbXbXuXzXhXhXhXhXzXAXnXsXdXlXpXpXpXyXiXcXcXsXsXsXZXPXsXdXuXuXuXhXhXuXpXlXjXdXcXlXlXpXpXpXyXpXyXuXAXgXcXZXgXdXzXxXxXuXbXbXSXSXiX",
"nXuXzXzXhXuXgXAXhXzXyXsXdXnXlXfXfXnXpXdXcXjXSXSXSXdXZXPXPXsXdXdXDXhXhXuXlXcXcXcXgXbXlXpXpXbXyXAXzXAXnXsXsXZXZXcXjXzXJXzXuXbXbXbX",
"zXzXuXcXlXdXdXyXzXhXAXnXdXgXnXlXyXlXnXpXlXiXjXbXbXlXcXdXZXPXPXsXdXdXhXhXuXcXlXiXgXgXgXbXCXyXyXuXzXdXcXpXpXlXsXZXlXbXAXzXzXhXhXzX",
"cXcXdXdXZXZXZXdXAXhXzXpXyXgXgXnXnXpXlXlXdXdXbXjXcXcXbXpXlXjXZXPXPXsXdXzXhXuXlXcXiXgXCXSXpXnXuXzXzXdXjXpXnXlXlXsXZXZXdXdXSXcXcXbX",
"cXsXZXZXsXdXdXZXyXzXhXAXnXfXgXnXnXdXlXdXpXdXSXiXiXbXcXpXyXpXpXdXZXPXsXSXxXxXuXlXnXiXSXgXpXuXhXxXzXpXsXpXfXgXpXcXpXsXsXZXZXsXsXdX",
"nXgXdXgXpXlXlXZXdXAXhXzXnXlXlXnXpXpXpXjXpXnXsXbXcXiXdXdXpXnXyXgXdXZXPXsXAXxXhXuXnXnXnXAXuXhXxXJXzXfXsXpXpXpXnXlXpXlXcXgXsXZXZXlX",
"yXnXnXgXlXyXlXdXZXyXhXhXAXlXlXlXyXpXnXpXpXyXdXdXjXdXdXpXpXpXnXpXfXdXZXPXsXiXzXxXJXhXzXhXhXxXJXJXzXfXdXpXpXnXpXlXlXlXlXyXyXlXlXyX",
"fXgXgXpXnXlXlXyXZXdXAXhXzXlXbXgXnXlXnXpXdXyXcXpXdXlXlXpXpXyXpXnXnXlXdXZXPXsXAXzXJXJXxXxXxXJXJXJXzXcXjXgXpXnXpXpXpXlXnXlXpXpXyXyX",
"nXgXpXgXyXyXlXyXdXZXyXzXhXAXbXbXgXpXpXnXdXdXiXlXjXjXlXpXpXpXpXnXnXgXlXlXLXPXcXAXJXxXxXhXhXhXxXJXzXpXcXjXpXpXpXlXpXlXyXpXyXyXyXyX",
"nXcXnXnXlXyXlXyXdXZXyXuXhXuXpXiXlXfXpXnXdXdXgXdXdXcXnXgXpXgXnXnXfXnXlXgXdXLXcXAXxXzXuXcXCXAXuXhXzXAXpXcXjXcXpXlXdXpXyXnXnXpXyXyX",
"cXfXbXbXnXyXlXyXsXlXnXAXhXuXnXSXyXpXpXbXcXgXjXsXlXlXlXgXpXgXgXgXlXlXlXgXcXsXcXuXhXAXlXpXdXsXsXuXzXzXAXnXpXiXpXnXlXpXnXnXfXnXnXyX",
"bXnXbXnXgXyXyXyXdXyXpXuXxXuXnXSXpXyXpXdXcXgXsXdXlXlXpXgXpXpXnXgXnXlXcXbXlXsXSXuXuXkXlXpXpXnXlXdXuXzXzXuXkXiXiXpXnXyXpXpXnXnXyXyX",
"fXyXbXnXlXlXyXyXyXpXuXhXxXhXyXBXbXpXpXpXDXdXdXcXcXnXyXgXpXpXgXnXlXgXgXcXlXlXuXuXAXpXpXpXpXyXnXlXsXsXuXzXzXkXiXiXiXpXpXgXgXnXfXyX",
"pXfXcXlXgXlXyXyXyXnXuXhXxXhXnXSXSXpXlXsXdXdXjXcXdXdXyXgXpXnXpXpXpXgXgXiXiXcXuXuXbXlXlXpXpXnXyXyXlXsXLXLXuXhXuXpXiXpXgXgXbXnXyXyX",
"lXfXlXpXfXyXyXlXyXlXpXuXzXhXzXbXbXSXpXlXsXdXlXgXdXdXnXpXpXpXgXyXnXiXiXSXcXuXuXAXlXsXpXpXpXnXyXyXyXlXsXMXLXuXhXuXlXSXbXnXyXnXyXvX",
"bXgXpXbXpXyXyXlXyXdXdXyXyXuXhXzXSXSXpXdXsXsXlXdXjXlXnXnXpXgXgXbXiXSXSXDXuXuXAXiXlXsXpXnXpXpXyXyXnXpXpXZXPXLXuXhXkXpXSXbXlXnXyXyX",
"cXpXgXlXpXyXyXpXyXpXdXsXsXyXzXxXzXSXnXjXsXsXpXpXlXpXlXnXpXbXbXbXbXbXuXzXuXAXgXjXdXlXlXnXpXpXnXyXnXnXpXpXZXPXLXzXuXlXiXSXbXlXnXyX",
"cXyXcXdXpXyXyXdXyXpXlXdXsXdXuXhXxXSXBXlXpXlXlXlXfXlXpXbXbXiXbXbXuXzXhXuXAXnXfXdXpXpXlXpXnXpXnXnXyXyXpXpXpXZXsXuXhXuXyXiXSXlXnXnX",
"gXpXlXpXpXlXyXnXnXnXlXlXdXsXyXuXxXzXSXBXSXpXpXpXyXfXbXSXCXbXuXzXzXzXAXkXlXiXdXpXnXpXpXlXpXpXpXlXpXnXnXpXpXlXZXsXuXhXzXyXSXbXyXfX",
"lXyXdXlXnXlXyXnXnXyXlXlXbXsXdXAXxXhXzXSXFXSXpXpXpXbXSXBXCXuXzXzXzXAXgXlXlXiXlXdXdXnXnXlXpXpXpXpXlXpXpXpXnXpXsXsXuXzXhXuXfXSXbXyX",
"lXpXdXlXnXyXlXnXnXnXpXlXiXSXdXpXzXxXxXzXSXFXFXFXBXBXUXCXuXzXzXAXcXgXlXlXbXcXdXdXdXlXpXdXnXpXnXpXlXlXnXnXpXpXlXsXsXuXhXzXuXnXSXiX",
"yXpXdXpXpXyXyXyXbXiXSXSXSXSXbXAXzXxXxXhXzXSXFXwXwXFXCXzXhXhXbXgXlXnXpXcXiXiXdXdXlXpXpXpXnXnXpXpXpXpXnXnXpXpXpXlXjXdXuXhXhXuXyXSX",
"iXfXfXlXyXbXiXSXSXSXSXiXbXbXAXhXhXxXxXxXxXhXzXFXFXCXzXxXxXxXgXiXCXfXnXiXcXdXlXdXgXpXpXyXnXnXpXpXpXlXnXnXpXpXpXpXsXdXAXhXxXuXgXiX",
"bXiXiXSXSXSXSXSXiXbXAXhXxXxXhXhXxXxXxXxXxXxXxXxXxXxXxXVXVXxXAXnXiXSXSXCXbXdXpXlXlXgXpXpXpXnXpXpXpXpXnXpXlXpXpXlXjXdXgXhXxXzXAXyX",
"bXSXSXSXSXiXbXuXzXzXxXhXhXhXuXCXdXdXZXLXPXIXLXDXjXzXxXxXVXVXzXAXfXnXiXSXSXSXSXbXpXpXgXgXnXpXlXpXpXlXpXnXnXpXlXjXdXyXkXhXxXhXzXAX",
"yXbXbXpXuXzXzXzXuXAXSXzXzXhXSXdXdXdXsXsXsXDXMXLXLXDXjXjXzXHXHXhXzXuXAXnXnXiXSXSXbXpXpXgXnXnXnXpXpXcXnXnXnXlXdXdXyXkXuXzXhXhXhXzX",
"zXzXzXzXzXuXAXlXlXpXAXAXhXzXiXnXnXbXnXpXgXcXlXlXcXsXLXDXjXzXHXHXVXhXzXhXuXAXnXiXBXSXbXnXpXnXnXpXpXlXnXpXlXgXlXyXkXAXuXzXzXzXzXhX",
"zXzXzXuXAXpXsXZXZXsXyXAXhXAXnXnXpXpXpXnXiXcXiXlXlXcXsXMXjXzXHXhXGXdXDXuXzXhXzXAXpXBXSXbXgXnXnXpXpXgXgXbXbXnXyXkXuXAXlXgXAXuXzXzX",
"zXuXAXpXsXZXZXdXdXsXyXuXhXSXyXnXlXfXcXyXbXcXlXdXbXnXdXDXjXJXhXGXcXdXLXPXLXAXuXzXuXbXBXBXSXiXiXiXiXiXiXgXyXkXuXAXpXcXsXdXdXAXzXzX",
"uXlXsXZXZXdXdXdXdXsXgXhXzXiXpXlXyXnXlXyXbXcXsXjXlXlXdXdXzXJXGXcXlXlXdXLXPXtXLXuXzXuXnXbXSXSXiXbXbXgXgXkXuXuXAXlXsXsXdXdXCXAXzXzX",
"nXsXsXlXlXlXyXpXpXdXAXhXAXlXyXyXnXnXgXgXsXcXsXcXlXlXnXzXJXhXDXlXyXfXpXcXsXPXtXKXDXhXhXuXnXlXpXkXAXuXzXuXAXlXdXsXjXdXlXCXkXuXzXAX",
"nXlXlXyXyXyXyXnXpXpXuXhXSXlXyXyXyXpXgXdXbXcXcXcXbXyXuXJXhXGXDXgXnXyXpXgXjXDXDXPXIXDXhXxXxXHXxXxXzXuXcXnXpXsXsXdXlXCXCXkXuXhXpXpX",
"lXpXlXyXyXnXyXlXnXyXhXzXiXnXbXgXpXgXlXnXcXcXcXcXdXyXhXhXGXDXcXnXyXnXgXcXcXDXjXjXZXPXdXzXVXrXxXuXdXdXsXsXsXdXgXCXCXlXuXzXzXlXgXyX",
"nXpXpXlXyXeXyXyXnXuXhXCXpXlXfXbXnXpXgXlXcXcXlXnXdXSXhXzXDXcXgXfXyXlXfXgXcXjXjXcXlXjXZXcXzXVXuXyXdXdXdXdXpXCXCXpXAXhXhXAXpXsXnXyX",
"pXlXdXpXpXeXeXgXnXhXzXiXpXnXnXpXnXgXpXlXcXcXlXlXlXuXhXDXcXgXnXgXdXgXgXlXgXjXcXgXlXlXjXZXcXzXzXnXdXdXpXiXCXgXAXhXxXzXpXlXsXfXyXnX",
"pXnXcXpXpXeXgXgXyXhXuXyXyXlXpXnXgXnXnXpXcXcXgXgXSXhXuXcXpXnXgXnXnXnXnXnXcXcXcXgXpXlXcXsXdXdXzXuXnXgXiXCXlXAXhXxXuXlXsXsXsXyXpXnX",
"pXpXdXlXpXeXbXgXAXhXiXyXyXyXpXpXnXlXlXlXlXcXgXbXuXhXDXnXgXnXgXnXnXyXnXnXgXcXcXlXpXlXgXcXsXdXdXhXxXuXnXAXhXJXxXuXpXSXyXpXyXyXlXyX",
"nXpXdXlXdXbXSXnXhXzXbXyXpXyXyXnXnXnXlXlXlXgXgXCXhXuXlXpXgXnXgXyXyXyXlXlXlXnXdXnXcXpXcXnXcXjXdXuXhXxXJXxXJXJXuXgXgXgXgXlXyXyXyXyX",
"pXcXdXpXbXSXbXuXhXuXyXnXpXyXyXyXlXnXlXlXlXgXiXuXhXlXbXpXpXpXgXgXpXgXlXdXpXgXcXgXlXcXdXnXgXcXdXuXzXhXxXJXJXhXAXgXgXiXiXgXgXyXpXyX",
"bXSXBXFXBXSXnXhXzXCXpXnXnXnXlXyXnXyXnXnXlXgXAXzXzXbXCXbXgXpXgXnXnXlXnXgXlXlXcXyXcXcXlXnXnXdXdXuXzXhXxXxXhXzXzXAXlXlXyXiXiXiXbXgX",
"nXnXnXnXnXnXhXhXzXiXyXlXyXyXpXyXyXyXyXyXgXiXuXhXzXAXbXCXCXCXCXCXCXSXSXSXCXCXCXCXCXCXiXbXbXbXuXzXhXzXAXgXpXpXAXzXzXzXAXnXnXnXnXyX",
"hXhXhXhXhXhXhXhXzXuXiXSXgXgXlXyXyXyXyXyXAXuXhXxXzXuXuXnXnXnXnXnXnXnXnXnXnXnXnXnXnXnXnXnXCXzXhXxXzXfXsXsXsXsXsXlXpXAXzXzXzXzXuXAX"
};
